kmake/parts/lut/cinema-navy.cube
TITLE "K-Maker cinema-navy"
LUT_3D_SIZE 5
DOMAIN_MIN 0 0 0
DOMAIN_MAX 1 1 1
0.03026 0.05503 0.10952
0.21096 0.05635 0.10618
0.48784 0.05857 0.10136
0.76488 0.06102 0.09690
0.94586 0.06276 0.09418
0.04202 0.23716 0.09889
0.22296 0.23882 0.09606
0.50019 0.24156 0.09203
0.77758 0.24454 0.08835
0.95878 0.24662 0.08614
0.06154 0.51832 0.08595
0.24282 0.52051 0.08391
0.52058 0.52405 0.08108
0.79851 0.52783 0.07861
0.98006 0.53043 0.07718
0.08285 0.80218 0.07706
0.26448 0.80489 0.07581
0.54278 0.80924 0.07418
0.82124 0.81383 0.07291
1.00000 0.81695 0.07228
0.09774 0.98899 0.07345
0.27959 0.99204 0.07271
0.55825 0.99691 0.07186
0.83705 1.00000 0.07138
1.00000 1.00000 0.07126
0.03141 0.05547 0.28566
0.21213 0.05682 0.28237
0.48905 0.05909 0.27763
0.76613 0.06160 0.27324
0.94713 0.06337 0.27057
0.04325 0.23771 0.27520
0.22421 0.23941 0.27242
0.50148 0.24220 0.26847
0.77890 0.24524 0.26487
0.96013 0.24734 0.26271
0.06289 0.51905 0.26253
0.24419 0.52127 0.26054
0.52199 0.52487 0.25778
0.79995 0.52870 0.25539
0.98153 0.53134 0.25402
0.08432 0.80309 0.25391
0.26597 0.80584 0.25270
0.54431 0.81024 0.25115
0.82280 0.81487 0.24997
1.00000 0.81803 0.24938
0.09928 0.99001 0.25046
0.28116 0.99310 0.24977
0.55985 0.99802 0.24901
0.83869 1.00000 0.24861
1.00000 1.00000 0.24854
0.03319 0.05616 0.55544
0.21395 0.05757 0.55223
0.49092 0.05992 0.54761
0.76805 0.06251 0.54335
0.94909 0.06433 0.54076
0.04515 0.23858 0.54525
0.22614 0.24033 0.54255
0.50346 0.24321 0.53872
0.78094 0.24632 0.53524
0.96221 0.24848 0.53316
0.06497 0.52019 0.53299
0.24631 0.52247 0.53108
0.52416 0.52615 0.52845
0.80218 0.53006 0.52617
0.98379 0.53275 0.52488
0.08658 0.80451 0.52478
0.26827 0.80730 0.52365
0.54666 0.81178 0.52223
0.82521 0.81650 0.52116
1.00000 0.81971 0.52065
0.10166 0.99161 0.52160
0.28358 0.99475 0.52099
0.56232 0.99975 0.52035
0.84122 1.00000 0.52007
1.00000 1.00000 0.52008
0.03499 0.05688 0.82527
0.21579 0.05834 0.82214
0.49281 0.06077 0.81764
0.76999 0.06344 0.81350
0.95107 0.06531 0.81099
0.04707 0.23948 0.81534
0.22810 0.24128 0.81272
0.50547 0.24424 0.80901
0.78301 0.24743 0.80566
0.96431 0.24965 0.80366
0.06707 0.52136 0.80349
0.24844 0.52369 0.80166
0.52635 0.52745 0.79915
0.80442 0.53145 0.79700
0.98607 0.53419 0.79579
0.08886 0.80595 0.79569
0.27059 0.80880 0.79464
0.54903 0.81336 0.79334
0.82763 0.81816 0.79239
1.00000 0.82142 0.79197
0.10406 0.99323 0.79278
0.28602 0.99642 0.79225
0.56481 1.00000 0.79173
0.84376 1.00000 0.79157
1.00000 1.00000 0.79166
0.03617 0.05736 1.00000
0.21699 0.05886 0.99839
0.49405 0.06134 0.99397
0.77127 0.06407 0.98991
0.95237 0.06597 0.98745
0.04834 0.24008 0.99172
0.22938 0.24192 0.98916
0.50679 0.24492 0.98552
0.78436 0.24817 0.98225
0.96569 0.25042 0.98030
0.06845 0.52214 0.98014
0.24985 0.52450 0.97836
0.52779 0.52831 0.97593
0.80589 0.53237 0.97386
0.98757 0.53514 0.97270
0.09036 0.80691 0.97260
0.27211 0.80979 0.97161
0.55059 0.81440 0.97038
0.82923 0.81926 0.96951
1.00000 0.82256 0.96914
0.10564 0.99430 0.96987
0.28762 0.99753 0.96939
0.56645 1.00000 0.96895
0.84543 1.00000 0.96887
1.00000 1.00000 0.96901
