kmake/parts/lut/cinema-navy.cube
TITLE "K-Maker cinema-navy"
LUT_3D_SIZE 9
DOMAIN_MIN 0 0 0
DOMAIN_MAX 1 1 1
0.03026 0.05503 0.10952
0.10163 0.05554 0.10819
0.21096 0.05635 0.10618
0.34142 0.05737 0.10387
0.48784 0.05857 0.10136
0.63431 0.05984 0.09896
0.76488 0.06102 0.09690
0.87436 0.06206 0.09523
0.94586 0.06276 0.09418
0.03481 0.12684 0.10512
0.10622 0.12740 0.10386
0.21561 0.12829 0.10198
0.34613 0.12941 0.09981
0.49263 0.13072 0.09747
0.63916 0.13210 0.09523
0.76980 0.13338 0.09331
0.87934 0.13450 0.09177
0.95087 0.13525 0.09080
0.04202 0.23716 0.09889
0.11349 0.23780 0.09775
0.22296 0.23882 0.09606
0.35358 0.24008 0.09412
0.50019 0.24156 0.09203
0.64684 0.24311 0.09004
0.77758 0.24454 0.08835
0.88719 0.24579 0.08700
0.95878 0.24662 0.08614
0.05099 0.36932 0.09229
0.12252 0.37006 0.09130
0.23209 0.37123 0.08983
0.36283 0.37267 0.08815
0.50957 0.37435 0.08636
0.65636 0.37609 0.08467
0.78722 0.37771 0.08325
0.89693 0.37910 0.08212
0.96859 0.38003 0.08142
0.06154 0.51832 0.08595
0.13314 0.51917 0.08513
0.24282 0.52051 0.08391
0.37369 0.52215 0.08253
0.52058 0.52405 0.08108
0.66752 0.52602 0.07973
0.79851 0.52783 0.07861
0.90834 0.52939 0.07773
0.98006 0.53043 0.07718
0.07258 0.66808 0.08075
0.14426 0.66904 0.08009
0.25405 0.67054 0.07912
0.38506 0.67238 0.07804
0.53210 0.67451 0.07693
0.67918 0.67670 0.07591
0.81030 0.67872 0.07509
0.92025 0.68044 0.07446
0.99204 0.68159 0.07408
0.08285 0.80218 0.07706
0.15459 0.80324 0.07655
0.26448 0.80489 0.07581
0.39561 0.80691 0.07500
0.54278 0.80924 0.07418
0.69000 0.81164 0.07347
0.82124 0.81383 0.07291
0.93128 0.81570 0.07251
1.00000 0.81695 0.07228
0.09176 0.91506 0.07467
0.16356 0.91620 0.07428
0.27353 0.91798 0.07373
0.40476 0.92014 0.07314
0.55204 0.92264 0.07257
0.69937 0.92520 0.07211
0.83072 0.92754 0.07178
0.94084 0.92955 0.07157
1.00000 0.93087 0.07146
0.09774 0.98899 0.07345
0.16957 0.99018 0.07314
0.27959 0.99204 0.07271
0.41089 0.99431 0.07226
0.55825 0.99691 0.07186
0.70565 0.99958 0.07156
0.83705 1.00000 0.07138
0.94723 1.00000 0.07129
1.00000 1.00000 0.07126
0.03071 0.05520 0.17910
0.10209 0.05572 0.17777
0.21142 0.05654 0.17578
0.34189 0.05756 0.17348
0.48832 0.05877 0.17099
0.63479 0.06005 0.16860
0.76537 0.06125 0.16655
0.87486 0.06230 0.16490
0.94636 0.06300 0.16385
0.03528 0.12703 0.17472
0.10669 0.12760 0.17347
0.21608 0.12850 0.17160
0.34661 0.12962 0.16944
0.49311 0.13094 0.16712
0.63966 0.13233 0.16490
0.77031 0.13363 0.16300
0.87985 0.13475 0.16147
0.95139 0.13551 0.16050
0.04251 0.23738 0.16853
0.11398 0.23803 0.16741
0.22345 0.23905 0.16573
0.35408 0.24032 0.16379
0.50069 0.24181 0.16172
0.64735 0.24337 0.15975
0.77810 0.24481 0.15808
0.88772 0.24607 0.15673
0.95931 0.24690 0.15589
0.05150 0.36957 0.16198
0.12303 0.37032 0.16100
0.23261 0.37149 0.15954
0.36336 0.37294 0.15788
0.51010 0.37463 0.15611
0.65690 0.37639 0.15444
0.78776 0.37801 0.15303
0.89748 0.37941 0.15191
0.96914 0.38035 0.15121
0.06207 0.51861 0.15570
0.13367 0.51947 0.15488
0.24336 0.52081 0.15368
0.37424 0.52246 0.15232
0.52114 0.52437 0.15088
0.66808 0.52635 0.14954
0.79908 0.52818 0.14844
0.90891 0.52974 0.14757
0.98064 0.53079 0.14704
0.07314 0.66840 0.15055
0.14482 0.66937 0.14990
0.25461 0.67088 0.14895
0.38563 0.67273 0.14788
0.53268 0.67487 0.14678
0.67977 0.67707 0.14578
0.81090 0.67910 0.14498
0.92084 0.68083 0.14436
0.99265 0.68199 0.14399
0.08343 0.80254 0.14692
0.15517 0.80360 0.14641
0.26507 0.80526 0.14568
0.39620 0.80729 0.14489
0.54338 0.80963 0.14409
0.69061 0.81204 0.14339
0.82186 0.81424 0.14285
0.93190 0.81612 0.14246
1.00000 0.81738 0.14223
0.09236 0.91544 0.14457
0.16416 0.91659 0.14418
0.27414 0.91837 0.14364
0.40537 0.92055 0.14307
0.55266 0.92306 0.14252
0.70000 0.92563 0.14207
0.83135 0.92798 0.14176
0.94148 0.92999 0.14156
1.00000 0.93133 0.14145
0.09835 0.98939 0.14337
0.17018 0.99059 0.14307
0.28021 0.99246 0.14265
0.41151 0.99473 0.14222
0.55888 0.99735 0.14184
0.70629 1.00000 0.14156
0.83770 1.00000 0.14139
0.94789 1.00000 0.14131
1.00000 1.00000 0.14129
0.03141 0.05547 0.28566
0.10279 0.05599 0.28434
0.21213 0.05682 0.28237
0.34261 0.05786 0.28009
0.48905 0.05909 0.27763
0.63554 0.06039 0.27526
0.76613 0.06160 0.27324
0.87562 0.06266 0.27161
0.94713 0.06337 0.27057
0.03600 0.12732 0.28132
0.10741 0.12790 0.28008
0.21681 0.12881 0.27823
0.34735 0.12995 0.27610
0.49387 0.13129 0.27380
0.64043 0.13269 0.27160
0.77108 0.13400 0.26973
0.88063 0.13514 0.26822
0.95217 0.13591 0.26726
0.04325 0.23771 0.27520
0.11473 0.23837 0.27408
0.22421 0.23941 0.27242
0.35485 0.24070 0.27051
0.50148 0.24220 0.26847
0.64815 0.24378 0.26652
0.77890 0.24524 0.26487
0.88853 0.24650 0.26354
0.96013 0.24734 0.26271
0.05228 0.36996 0.26872
0.12382 0.37071 0.26775
0.23340 0.37190 0.26632
0.36416 0.37336 0.26467
0.51092 0.37507 0.26293
0.65772 0.37685 0.26128
0.78860 0.37848 0.25990
0.89833 0.37990 0.25880
0.96999 0.38084 0.25811
0.06289 0.51905 0.26253
0.13450 0.51992 0.26172
0.24419 0.52127 0.26054
0.37508 0.52294 0.25920
0.52199 0.52487 0.25778
0.66894 0.52687 0.25647
0.79995 0.52870 0.25539
0.90979 0.53029 0.25454
0.98153 0.53134 0.25402
0.07399 0.66890 0.25746
0.14568 0.66988 0.25682
0.25548 0.67140 0.25589
0.38651 0.67327 0.25485
0.53357 0.67542 0.25377
0.68067 0.67764 0.25280
0.81181 0.67968 0.25202
0.92176 0.68143 0.25142
0.99357 0.68259 0.25106
0.08432 0.80309 0.25391
0.15607 0.80416 0.25341
0.26597 0.80584 0.25270
0.39712 0.80788 0.25193
0.54431 0.81024 0.25115
0.69154 0.81266 0.25048
0.82280 0.81487 0.24997
0.93286 0.81677 0.24959
1.00000 0.81803 0.24938
0.09328 0.91604 0.25162
0.16508 0.91719 0.25125
0.27507 0.91899 0.25072
0.40631 0.92118 0.25017
0.55362 0.92371 0.24965
0.70097 0.92630 0.24923
0.83232 0.92866 0.24894
0.94246 0.93069 0.24875
1.00000 0.93203 0.24866
0.09928 0.99001 0.25046
0.17112 0.99122 0.25017
0.28116 0.99310 0.24977
0.41247 0.99539 0.24937
0.55985 0.99802 0.24901
0.70727 1.00000 0.24875
0.83869 1.00000 0.24861
0.94889 1.00000 0.24855
1.00000 1.00000 0.24854
0.03225 0.05579 0.41279
0.10363 0.05632 0.41148
0.21299 0.05717 0.40953
0.34348 0.05823 0.40728
0.48993 0.05948 0.40485
0.63643 0.06080 0.40252
0.76703 0.06203 0.40052
0.87654 0.06310 0.39891
0.94805 0.06382 0.39789
0.03686 0.12768 0.40850
0.10828 0.12826 0.40728
0.21769 0.12919 0.40545
0.34824 0.13035 0.40334
0.49477 0.13171 0.40107
0.64134 0.13313 0.39891
0.77201 0.13446 0.39706
0.88157 0.13561 0.39557
0.95312 0.13639 0.39463
0.04415 0.23812 0.40245
0.11563 0.23879 0.40135
0.22512 0.23984 0.39971
0.35577 0.24114 0.39783
0.50241 0.24267 0.39582
0.64909 0.24427 0.39390
0.77986 0.24574 0.39228
0.88950 0.24702 0.39097
0.96111 0.24788 0.39016
0.05321 0.37042 0.39607
0.12476 0.37119 0.39511
0.23435 0.37239 0.39370
0.36512 0.37387 0.39209
0.51189 0.37560 0.39037
0.65871 0.37740 0.38875
0.78960 0.37905 0.38740
0.89934 0.38048 0.38632
0.97101 0.38143 0.38565
0.06386 0.51959 0.38997
0.13548 0.52046 0.38919
0.24518 0.52183 0.38802
0.37609 0.52352 0.38671
0.52301 0.52547 0.38533
0.66998 0.52749 0.38405
0.80100 0.52934 0.38299
0.91085 0.53094 0.38217
0.98259 0.53200 0.38166
0.07502 0.66951 0.38501
0.14671 0.67049 0.38439
0.25652 0.67203 0.38348
0.38756 0.67391 0.38246
0.53463 0.67609 0.38142
0.68175 0.67833 0.38048
0.81290 0.68039 0.37972
0.92287 0.68215 0.37915
0.99468 0.68332 0.37880
0.08538 0.80376 0.38155
0.15714 0.80484 0.38107
0.26705 0.80652 0.38038
0.39821 0.80859 0.37963
0.54541 0.81096 0.37889
0.69266 0.81341 0.37825
0.82393 0.81564 0.37776
0.93400 0.81755 0.37741
1.00000 0.81882 0.37721
0.09438 0.91675 0.37933
0.16619 0.91792 0.37898
0.27618 0.91973 0.37848
0.40744 0.92194 0.37796
0.55476 0.92448 0.37746
0.70212 0.92709 0.37707
0.83349 0.92948 0.37681
0.94364 0.93152 0.37665
1.00000 0.93287 0.37657
0.10040 0.99076 0.37823
0.17225 0.99198 0.37795
0.28230 0.99387 0.37758
0.41362 0.99618 0.37720
0.56101 0.99883 0.37687
0.70845 1.00000 0.37665
0.83988 1.00000 0.37653
0.95008 1.00000 0.37649
1.00000 1.00000 0.37649
0.03319 0.05616 0.55544
0.10459 0.05670 0.55416
0.21395 0.05757 0.55223
0.34445 0.05865 0.55001
0.49092 0.05992 0.54761
0.63744 0.06126 0.54531
0.76805 0.06251 0.54335
0.87757 0.06360 0.54176
0.94909 0.06433 0.54076
0.03782 0.12808 0.55121
0.10926 0.12868 0.55000
0.21868 0.12962 0.54820
0.34924 0.13080 0.54613
0.49578 0.13218 0.54389
0.64237 0.13363 0.54176
0.77305 0.13498 0.53994
0.88262 0.13615 0.53848
0.95418 0.13693 0.53755
0.04515 0.23858 0.54525
0.11664 0.23926 0.54417
0.22614 0.24033 0.54255
0.35681 0.24166 0.54070
0.50346 0.24321 0.53872
0.65016 0.24482 0.53684
0.78094 0.24632 0.53524
0.89060 0.24762 0.53397
0.96221 0.24848 0.53316
0.05427 0.37095 0.53897
0.12582 0.37173 0.53803
0.23542 0.37295 0.53664
0.36621 0.37445 0.53506
0.51299 0.37620 0.53337
0.65983 0.37802 0.53179
0.79073 0.37970 0.53046
0.90048 0.38114 0.52941
0.97216 0.38210 0.52876
0.06497 0.52019 0.53299
0.13659 0.52108 0.53221
0.24631 0.52247 0.53108
0.37722 0.52417 0.52979
0.52416 0.52615 0.52845
0.67114 0.52819 0.52720
0.80218 0.53006 0.52617
0.91204 0.53167 0.52538
0.98379 0.53275 0.52488
0.07617 0.67019 0.52814
0.14787 0.67118 0.52753
0.25769 0.67274 0.52665
0.38875 0.67464 0.52566
0.53583 0.67684 0.52465
0.68296 0.67911 0.52374
0.81413 0.68118 0.52302
0.92411 0.68296 0.52247
0.99593 0.68415 0.52214
0.08658 0.80451 0.52478
0.15834 0.80560 0.52431
0.26827 0.80730 0.52365
0.39944 0.80939 0.52293
0.54666 0.81178 0.52223
0.69392 0.81425 0.52162
0.82521 0.81650 0.52116
0.93529 0.81843 0.52083
1.00000 0.81971 0.52065
0.09561 0.91756 0.52265
0.16743 0.91874 0.52231
0.27744 0.92056 0.52183
0.40871 0.92280 0.52134
0.55604 0.92536 0.52088
0.70342 0.92800 0.52053
0.83480 0.93040 0.52029
0.94496 0.93245 0.52016
1.00000 0.93382 0.52010
0.10166 0.99161 0.52160
0.17352 0.99283 0.52134
0.28358 0.99475 0.52099
0.41492 0.99707 0.52064
0.56232 0.99975 0.52035
0.70977 1.00000 0.52016
0.84122 1.00000 0.52007
0.95143 1.00000 0.52005
1.00000 1.00000 0.52008
0.03414 0.05654 0.69811
0.10554 0.05709 0.69684
0.21492 0.05797 0.69494
0.34543 0.05907 0.69275
0.49192 0.06037 0.69038
0.63845 0.06173 0.68812
0.76908 0.06300 0.68619
0.87860 0.06410 0.68463
0.95013 0.06485 0.68364
0.03880 0.12850 0.69393
0.11024 0.12910 0.69274
0.21967 0.13007 0.69097
0.35025 0.13126 0.68892
0.49681 0.13267 0.68672
0.64341 0.13414 0.68462
0.77410 0.13551 0.68283
0.88368 0.13669 0.68140
0.95525 0.13749 0.68049
0.04617 0.23905 0.68806
0.11766 0.23974 0.68699
0.22718 0.24083 0.68540
0.35785 0.24217 0.68358
0.50452 0.24375 0.68163
0.65124 0.24539 0.67978
0.78203 0.24690 0.67822
0.89170 0.24822 0.67697
0.96332 0.24909 0.67619
0.05532 0.37149 0.68188
0.12688 0.37228 0.68096
0.23650 0.37352 0.67959
0.36730 0.37504 0.67804
0.51410 0.37681 0.67639
0.66095 0.37865 0.67484
0.79186 0.38035 0.67354
0.90162 0.38181 0.67252
0.97331 0.38279 0.67188
0.06608 0.52081 0.67601
0.13771 0.52171 0.67525
0.24743 0.52311 0.67414
0.37837 0.52483 0.67289
0.52532 0.52683 0.67158
0.67231 0.52889 0.67036
0.80336 0.53079 0.66937
0.91324 0.53242 0.66859
0.98499 0.53350 0.66812
0.07733 0.67088 0.67128
0.14903 0.67189 0.67069
0.25887 0.67346 0.66983
0.38994 0.67538 0.66887
0.53704 0.67760 0.66790
0.68419 0.67989 0.66702
0.81537 0.68199 0.66633
0.92535 0.68379 0.66580
0.99718 0.68498 0.66549
0.08778 0.80527 0.66802
0.15955 0.80637 0.66757
0.26949 0.80809 0.66693
0.40068 0.81019 0.66625
0.54791 0.81261 0.66557
0.69519 0.81510 0.66500
0.82649 0.81738 0.66457
0.93658 0.81932 0.66427
1.00000 0.82062 0.66411
0.09686 0.91838 0.66597
0.16868 0.91956 0.66565
0.27870 0.92141 0.66520
0.40998 0.92366 0.66474
0.55733 0.92625 0.66432
0.70472 0.92891 0.66399
0.83612 0.93133 0.66379
0.94629 0.93340 0.66368
1.00000 0.93477 0.66364
0.10293 0.99246 0.66498
0.17479 0.99370 0.66474
0.28487 0.99563 0.66441
0.41621 0.99798 0.66410
0.56363 1.00000 0.66384
0.71110 1.00000 0.66368
0.84256 1.00000 0.66362
0.95279 1.00000 0.66363
1.00000 1.00000 0.66367
0.03499 0.05688 0.82527
0.10640 0.05744 0.82401
0.21579 0.05834 0.82214
0.34631 0.05946 0.81997
0.49281 0.06077 0.81764
0.63935 0.06215 0.81540
0.76999 0.06344 0.81350
0.87953 0.06456 0.81196
0.95107 0.06531 0.81099
0.03967 0.12887 0.82114
0.11112 0.12949 0.81997
0.22056 0.13047 0.81821
0.35115 0.13168 0.81619
0.49772 0.13311 0.81402
0.64434 0.13460 0.81195
0.77504 0.13598 0.81019
0.88463 0.13719 0.80878
0.95621 0.13799 0.80789
0.04707 0.23948 0.81534
0.11857 0.24018 0.81429
0.22810 0.24128 0.81272
0.35879 0.24264 0.81093
0.50547 0.24424 0.80901
0.65220 0.24590 0.80719
0.78301 0.24743 0.80566
0.89268 0.24876 0.80443
0.96431 0.24965 0.80366
0.05627 0.37198 0.80925
0.12784 0.37278 0.80835
0.23746 0.37403 0.80701
0.36827 0.37557 0.80548
0.51509 0.37736 0.80386
0.66195 0.37922 0.80234
0.79287 0.38094 0.80107
0.90265 0.38241 0.80007
0.97434 0.38340 0.79945
0.06707 0.52136 0.80349
0.13871 0.52227 0.80275
0.24844 0.52369 0.80166
0.37939 0.52543 0.80043
0.52635 0.52745 0.79915
0.67336 0.52953 0.79797
0.80442 0.53145 0.79700
0.91431 0.53309 0.79625
0.98607 0.53419 0.79579
0.07837 0.67150 0.79886
0.15008 0.67252 0.79828
0.25993 0.67411 0.79744
0.39100 0.67605 0.79652
0.53812 0.67829 0.79557
0.68528 0.68060 0.79473
0.81647 0.68271 0.79406
0.92647 0.68452 0.79356
0.99830 0.68573 0.79326
0.08886 0.80595 0.79569
0.16064 0.80706 0.79526
0.27059 0.80880 0.79464
0.40178 0.81092 0.79398
0.54903 0.81336 0.79334
0.69632 0.81587 0.79279
0.82763 0.81816 0.79239
0.93773 0.82012 0.79212
1.00000 0.82142 0.79197
0.09797 0.91911 0.79372
0.16980 0.92031 0.79341
0.27983 0.92217 0.79299
0.41112 0.92444 0.79255
0.55849 0.92705 0.79216
0.70589 0.92972 0.79186
0.83730 0.93216 0.79169
0.94748 0.93425 0.79160
1.00000 0.93563 0.79157
0.10406 0.99323 0.79278
0.17593 0.99448 0.79255
0.28602 0.99642 0.79225
0.41738 0.99879 0.79196
0.56481 1.00000 0.79173
0.71229 1.00000 0.79160
0.84376 1.00000 0.79157
0.95400 1.00000 0.79160
1.00000 1.00000 0.79166
0.03571 0.05717 0.93187
0.10712 0.05774 0.93062
0.21652 0.05865 0.92877
0.34705 0.05978 0.92662
0.49356 0.06112 0.92432
0.64012 0.06251 0.92211
0.77077 0.06382 0.92022
0.88031 0.06495 0.91870
0.95185 0.06571 0.91774
0.04041 0.12919 0.92778
0.11186 0.12982 0.92662
0.22131 0.13081 0.92488
0.35191 0.13204 0.92289
0.49849 0.13348 0.92074
0.64512 0.13499 0.91870
0.77583 0.13639 0.91696
0.88543 0.13760 0.91557
0.95701 0.13842 0.91468
0.04784 0.23984 0.92205
0.11934 0.24055 0.92101
0.22888 0.24166 0.91946
0.35958 0.24304 0.91769
0.50627 0.24465 0.91580
0.65301 0.24633 0.91400
0.78382 0.24788 0.91249
0.89351 0.24922 0.91128
0.96514 0.25011 0.91052
0.05707 0.37239 0.91603
0.12864 0.37320 0.91514
0.23827 0.37446 0.91382
0.36909 0.37602 0.91231
0.51592 0.37783 0.91072
0.66279 0.37970 0.90923
0.79373 0.38143 0.90798
0.90351 0.38292 0.90700
0.97521 0.38392 0.90638
0.06790 0.52183 0.91035
0.13955 0.52275 0.90963
0.24929 0.52418 0.90855
0.38024 0.52594 0.90735
0.52722 0.52797 0.90609
0.67424 0.53007 0.90494
0.80531 0.53200 0.90399
0.91521 0.53366 0.90326
0.98697 0.53476 0.90281
0.07924 0.67203 0.90581
0.15096 0.67305 0.90524
0.26081 0.67465 0.90443
0.39190 0.67661 0.90352
0.53903 0.67887 0.90260
0.68620 0.68119 0.90178
0.81740 0.68332 0.90114
0.92741 0.68515 0.90065
0.99925 0.68636 0.90037
0.08977 0.80653 0.90271
0.16155 0.80765 0.90229
0.27151 0.80940 0.90170
0.40271 0.81153 0.90106
0.54997 0.81399 0.90044
0.69728 0.81652 0.89992
0.82860 0.81882 0.89954
0.93870 0.82080 0.89929
1.00000 0.82211 0.89915
0.09890 0.91973 0.90081
0.17074 0.92093 0.90052
0.28078 0.92281 0.90011
0.41208 0.92509 0.89970
0.55946 0.92772 0.89933
0.70687 0.93041 0.89906
0.83829 0.93287 0.89890
0.94848 0.93497 0.89884
1.00000 0.93636 0.89882
0.10502 0.99387 0.89991
0.17689 0.99513 0.89969
0.28698 0.99709 0.89941
0.41835 0.99947 0.89914
0.56580 1.00000 0.89894
0.71329 1.00000 0.89884
0.84477 1.00000 0.89883
0.95502 1.00000 0.89888
1.00000 1.00000 0.89895
0.03617 0.05736 1.00000
0.10759 0.05794 1.00000
0.21699 0.05886 0.99839
0.34754 0.06000 0.99627
0.49405 0.06134 0.99397
0.64062 0.06275 0.99178
0.77127 0.06407 0.98991
0.88082 0.06521 0.98841
0.95237 0.06597 0.98745
0.04089 0.12940 0.99741
0.11234 0.13003 0.99626
0.22180 0.13103 0.99454
0.35241 0.13227 0.99256
0.49899 0.13372 0.99043
0.64563 0.13524 0.98840
0.77635 0.13665 0.98668
0.88596 0.13788 0.98529
0.95754 0.13870 0.98442
0.04834 0.24008 0.99172
0.11985 0.24079 0.99069
0.22938 0.24192 0.98916
0.36009 0.24330 0.98740
0.50679 0.24492 0.98552
0.65354 0.24661 0.98375
0.78436 0.24817 0.98225
0.89405 0.24952 0.98105
0.96569 0.25042 0.98030
0.05759 0.37266 0.98576
0.12916 0.37347 0.98487
0.23880 0.37475 0.98356
0.36963 0.37631 0.98207
0.51646 0.37813 0.98050
0.66334 0.38002 0.97902
0.79428 0.38176 0.97779
0.90407 0.38326 0.97682
0.97577 0.38426 0.97621
0.06845 0.52214 0.98014
0.14010 0.52306 0.97941
0.24985 0.52450 0.97836
0.38081 0.52627 0.97717
0.52779 0.52831 0.97593
0.67482 0.53043 0.97479
0.80589 0.53237 0.97386
0.91579 0.53403 0.97314
0.98757 0.53514 0.97270
0.07981 0.67238 0.97565
0.15153 0.67341 0.97509
0.26139 0.67501 0.97428
0.39249 0.67698 0.97339
0.53962 0.67925 0.97249
0.68680 0.68159 0.97169
0.81801 0.68372 0.97106
0.92802 0.68556 0.97059
0.99987 0.68678 0.97031
0.09036 0.80691 0.97260
0.16215 0.80803 0.97219
0.27211 0.80979 0.97161
0.40332 0.81194 0.97098
0.55059 0.81440 0.97038
0.69790 0.81694 0.96988
0.82923 0.81926 0.96951
0.93934 0.82124 0.96927
1.00000 0.82256 0.96914
0.09951 0.92014 0.97074
0.17135 0.92135 0.97045
0.28140 0.92323 0.97006
0.41271 0.92552 0.96966
0.56009 0.92816 0.96931
0.70751 0.93086 0.96906
0.83894 0.93333 0.96892
0.94914 0.93544 0.96886
1.00000 0.93684 0.96885
0.10564 0.99430 0.96987
0.17752 0.99556 0.96966
0.28762 0.99753 0.96939
0.41899 0.99992 0.96913
0.56645 1.00000 0.96895
0.71394 1.00000 0.96886
0.84543 1.00000 0.96887
0.95568 1.00000 0.96893
1.00000 1.00000 0.96901
