kmake/parts/lut/cinema-navy.cube
TITLE "K-Maker cinema-navy"
LUT_3D_SIZE 33
DOMAIN_MIN 0 0 0
DOMAIN_MAX 1 1 1
0.03026 0.05503 0.10952
0.04139 0.05511 0.10931
0.05845 0.05523 0.10899
0.07880 0.05538 0.10861
0.10163 0.05554 0.10819
0.12651 0.05572 0.10772
0.15315 0.05592 0.10723
0.18135 0.05613 0.10672
0.21096 0.05635 0.10618
0.24186 0.05659 0.10563
0.27395 0.05684 0.10505
0.30716 0.05710 0.10447
0.34142 0.05737 0.10387
0.37666 0.05765 0.10325
0.41284 0.05794 0.10263
0.44991 0.05825 0.10200
0.48784 0.05857 0.10136
0.52577 0.05889 0.10073
0.56285 0.05921 0.10012
0.59904 0.05953 0.09953
0.63431 0.05984 0.09896
0.66858 0.06014 0.09841
0.70182 0.06044 0.09788
0.73395 0.06074 0.09738
0.76488 0.06102 0.09690
0.79453 0.06130 0.09644
0.82277 0.06157 0.09601
0.84944 0.06182 0.09561
0.87436 0.06206 0.09523
0.89723 0.06228 0.09489
0.91761 0.06248 0.09459
0.93470 0.06265 0.09434
0.94586 0.06276 0.09418
0.03096 0.06623 0.10882
0.04210 0.06631 0.10861
0.05915 0.06643 0.10829
0.07950 0.06658 0.10791
0.10234 0.06674 0.10749
0.12722 0.06693 0.10704
0.15386 0.06713 0.10655
0.18206 0.06734 0.10604
0.21168 0.06757 0.10551
0.24258 0.06780 0.10496
0.27468 0.06806 0.10439
0.30789 0.06832 0.10381
0.34215 0.06860 0.10321
0.37739 0.06888 0.10261
0.41357 0.06918 0.10199
0.45065 0.06949 0.10137
0.48858 0.06982 0.10074
0.52651 0.07014 0.10011
0.56360 0.07047 0.09950
0.59979 0.07079 0.09892
0.63506 0.07110 0.09836
0.66934 0.07141 0.09781
0.70258 0.07172 0.09729
0.73470 0.07201 0.09680
0.76564 0.07230 0.09632
0.79529 0.07258 0.09587
0.82353 0.07285 0.09544
0.85021 0.07311 0.09504
0.87513 0.07335 0.09467
0.89800 0.07358 0.09434
0.91839 0.07378 0.09404
0.93548 0.07395 0.09379
0.94663 0.07406 0.09363
0.03204 0.08338 0.10775
0.04318 0.08346 0.10755
0.06024 0.08358 0.10723
0.08059 0.08373 0.10686
0.10343 0.08391 0.10644
0.12831 0.08409 0.10599
0.15496 0.08430 0.10552
0.18316 0.08452 0.10501
0.21278 0.08475 0.10449
0.24369 0.08499 0.10395
0.27579 0.08525 0.10339
0.30900 0.08552 0.10282
0.34326 0.08580 0.10223
0.37851 0.08610 0.10163
0.41470 0.08640 0.10103
0.45178 0.08672 0.10041
0.48972 0.08705 0.09979
0.52765 0.08738 0.09917
0.56474 0.08771 0.09858
0.60094 0.08804 0.09800
0.63621 0.08836 0.09745
0.67050 0.08868 0.09692
0.70374 0.08899 0.09641
0.73587 0.08929 0.09592
0.76681 0.08959 0.09545
0.79646 0.08987 0.09501
0.82471 0.09015 0.09459
0.85139 0.09041 0.09420
0.87631 0.09065 0.09383
0.89919 0.09088 0.09350
0.91958 0.09109 0.09321
0.93667 0.09126 0.09297
0.94783 0.09137 0.09281
0.03334 0.10385 0.10650
0.04448 0.10393 0.10630
0.06154 0.10406 0.10599
0.08190 0.10422 0.10562
0.10474 0.10439 0.10521
0.12963 0.10459 0.10477
0.15627 0.10480 0.10430
0.18449 0.10502 0.10381
0.21411 0.10526 0.10329
0.24502 0.10551 0.10276
0.27712 0.10578 0.10221
0.31034 0.10605 0.10165
0.34461 0.10634 0.10108
0.37986 0.10664 0.10049
0.41606 0.10696 0.09990
0.45314 0.10728 0.09929
0.49108 0.10762 0.09868
0.52902 0.10796 0.09808
0.56612 0.10830 0.09750
0.60232 0.10863 0.09693
0.63760 0.10896 0.09639
0.67189 0.10929 0.09587
0.70513 0.10960 0.09537
0.73727 0.10991 0.09489
0.76822 0.11022 0.09443
0.79787 0.11051 0.09400
0.82612 0.11079 0.09359
0.85281 0.11106 0.09320
0.87773 0.11131 0.09285
0.90061 0.11154 0.09253
0.92100 0.11175 0.09224
0.93809 0.11192 0.09200
0.94926 0.11204 0.09185
0.03481 0.12684 0.10512
0.04595 0.12693 0.10492
0.06302 0.12706 0.10462
0.08338 0.12722 0.10426
0.10622 0.12740 0.10386
0.13111 0.12760 0.10343
0.15777 0.12782 0.10297
0.18598 0.12805 0.10248
0.21561 0.12829 0.10198
0.24652 0.12855 0.10146
0.27863 0.12882 0.10092
0.31186 0.12911 0.10037
0.34613 0.12941 0.09981
0.38139 0.12972 0.09924
0.41759 0.13004 0.09865
0.45468 0.13037 0.09806
0.49263 0.13072 0.09747
0.53057 0.13107 0.09688
0.56767 0.13142 0.09631
0.60389 0.13176 0.09576
0.63916 0.13210 0.09523
0.67346 0.13243 0.09472
0.70671 0.13275 0.09423
0.73885 0.13307 0.09376
0.76980 0.13338 0.09331
0.79946 0.13368 0.09289
0.82772 0.13397 0.09249
0.85441 0.13424 0.09212
0.87934 0.13450 0.09177
0.90222 0.13474 0.09146
0.92261 0.13495 0.09118
0.93971 0.13513 0.09095
0.95087 0.13525 0.09080
0.03643 0.15191 0.10364
0.04757 0.15200 0.10345
0.06464 0.15214 0.10316
0.08500 0.15230 0.10280
0.10785 0.15249 0.10241
0.13274 0.15269 0.10199
0.15940 0.15292 0.10154
0.18762 0.15316 0.10107
0.21725 0.15341 0.10058
0.24818 0.15368 0.10007
0.28029 0.15396 0.09954
0.31352 0.15425 0.09901
0.34780 0.15456 0.09846
0.38307 0.15487 0.09790
0.41927 0.15521 0.09733
0.45637 0.15555 0.09676
0.49432 0.15591 0.09617
0.53228 0.15627 0.09560
0.56938 0.15662 0.09504
0.60560 0.15697 0.09451
0.64089 0.15732 0.09399
0.67519 0.15766 0.09349
0.70845 0.15800 0.09302
0.74059 0.15832 0.09256
0.77155 0.15864 0.09213
0.80121 0.15895 0.09172
0.82947 0.15924 0.09133
0.85617 0.15952 0.09097
0.88110 0.15979 0.09063
0.90399 0.16003 0.09032
0.92438 0.16025 0.09005
0.94148 0.16043 0.08983
0.95265 0.16056 0.08968
0.03818 0.17877 0.10210
0.04932 0.17887 0.10191
0.06639 0.17901 0.10163
0.08676 0.17918 0.10128
0.10961 0.17938 0.10090
0.13451 0.17959 0.10049
0.16117 0.17982 0.10005
0.18940 0.18007 0.09959
0.21903 0.18033 0.09911
0.24996 0.18060 0.09862
0.28208 0.18089 0.09810
0.31532 0.18119 0.09758
0.34961 0.18151 0.09705
0.38488 0.18184 0.09650
0.42109 0.18218 0.09595
0.45819 0.18253 0.09539
0.49615 0.18290 0.09482
0.53412 0.18327 0.09427
0.57123 0.18364 0.09373
0.60745 0.18400 0.09320
0.64275 0.18436 0.09270
0.67705 0.18471 0.09222
0.71032 0.18505 0.09176
0.74247 0.18539 0.09132
0.77343 0.18571 0.09090
0.80310 0.18603 0.09050
0.83137 0.18633 0.09012
0.85807 0.18662 0.08977
0.88301 0.18689 0.08944
0.90590 0.18714 0.08915
0.92630 0.18736 0.08888
0.94340 0.18755 0.08867
0.95457 0.18768 0.08852
0.04004 0.20724 0.10051
0.05119 0.20734 0.10033
0.06827 0.20749 0.10005
0.08864 0.20766 0.09972
0.11149 0.20786 0.09935
0.13640 0.20808 0.09894
0.16306 0.20832 0.09852
0.19130 0.20858 0.09807
0.22094 0.20885 0.09760
0.25187 0.20913 0.09712
0.28400 0.20943 0.09662
0.31724 0.20974 0.09611
0.35153 0.21007 0.09559
0.38681 0.21041 0.09507
0.42303 0.21076 0.09453
0.46014 0.21112 0.09399
0.49811 0.21150 0.09344
0.53608 0.21188 0.09290
0.57320 0.21226 0.09237
0.60943 0.21264 0.09187
0.64473 0.21300 0.09138
0.67905 0.21336 0.09091
0.71232 0.21372 0.09047
0.74448 0.21406 0.09004
0.77544 0.21440 0.08963
0.80512 0.21472 0.08925
0.83339 0.21503 0.08888
0.86010 0.21533 0.08854
0.88504 0.21561 0.08823
0.90793 0.21586 0.08794
0.92834 0.21609 0.08769
0.94544 0.21629 0.08748
0.95661 0.21641 0.08734
0.04202 0.23716 0.09889
0.05317 0.23726 0.09871
0.07025 0.23741 0.09844
0.09063 0.23760 0.09812
0.11349 0.23780 0.09775
0.13840 0.23803 0.09736
0.16507 0.23828 0.09695
0.19331 0.23854 0.09651
0.22296 0.23882 0.09606
0.25390 0.23911 0.09559
0.28603 0.23942 0.09511
0.31928 0.23975 0.09462
0.35358 0.24008 0.09412
0.38887 0.24043 0.09360
0.42509 0.24080 0.09308
0.46221 0.24117 0.09256
0.50019 0.24156 0.09203
0.53816 0.24196 0.09150
0.57529 0.24235 0.09100
0.61153 0.24273 0.09051
0.64684 0.24311 0.09004
0.68116 0.24348 0.08959
0.71444 0.24384 0.08915
0.74660 0.24420 0.08874
0.77758 0.24454 0.08835
0.80726 0.24488 0.08798
0.83553 0.24519 0.08763
0.86225 0.24550 0.08730
0.88719 0.24579 0.08700
0.91009 0.24605 0.08672
0.93050 0.24629 0.08648
0.94761 0.24649 0.08627
0.95878 0.24662 0.08614
0.04411 0.26841 0.09724
0.05527 0.26852 0.09707
0.07235 0.26867 0.09681
0.09273 0.26886 0.09649
0.11559 0.26908 0.09614
0.14051 0.26932 0.09577
0.16719 0.26957 0.09536
0.19543 0.26984 0.09494
0.22508 0.27013 0.09450
0.25603 0.27044 0.09405
0.28817 0.27076 0.09359
0.32143 0.27109 0.09311
0.35574 0.27144 0.09262
0.39103 0.27180 0.09213
0.42726 0.27217 0.09162
0.46439 0.27256 0.09112
0.50237 0.27296 0.09060
0.54036 0.27337 0.09010
0.57750 0.27377 0.08961
0.61374 0.27417 0.08914
0.64906 0.27456 0.08869
0.68339 0.27494 0.08825
0.71667 0.27531 0.08784
0.74884 0.27568 0.08744
0.77982 0.27603 0.08706
0.80951 0.27638 0.08670
0.83779 0.27670 0.08637
0.86451 0.27702 0.08605
0.88947 0.27731 0.08576
0.91237 0.27758 0.08549
0.93278 0.27783 0.08526
0.94990 0.27803 0.08507
0.96107 0.27817 0.08494
0.04631 0.30091 0.09559
0.05746 0.30101 0.09542
0.07455 0.30118 0.09517
0.09493 0.30137 0.09486
0.11780 0.30160 0.09452
0.14272 0.30184 0.09416
0.16941 0.30211 0.09377
0.19766 0.30239 0.09336
0.22732 0.30269 0.09294
0.25827 0.30300 0.09250
0.29042 0.30333 0.09205
0.32369 0.30368 0.09159
0.35800 0.30403 0.09112
0.39330 0.30441 0.09065
0.42954 0.30480 0.09016
0.46668 0.30520 0.08967
0.50467 0.30561 0.08918
0.54266 0.30603 0.08869
0.57981 0.30644 0.08822
0.61606 0.30685 0.08777
0.65139 0.30725 0.08734
0.68572 0.30765 0.08692
0.71901 0.30803 0.08652
0.75119 0.30841 0.08614
0.78218 0.30877 0.08578
0.81188 0.30913 0.08543
0.84016 0.30946 0.08511
0.86689 0.30979 0.08481
0.89185 0.31009 0.08453
0.91476 0.31037 0.08428
0.93518 0.31062 0.08405
0.95229 0.31083 0.08387
0.96347 0.31097 0.08375
0.04860 0.33456 0.09393
0.05976 0.33467 0.09377
0.07685 0.33484 0.09353
0.09724 0.33505 0.09323
0.12011 0.33528 0.09291
0.14504 0.33553 0.09255
0.17173 0.33581 0.09218
0.19999 0.33610 0.09179
0.22965 0.33641 0.09138
0.26061 0.33673 0.09096
0.29277 0.33707 0.09053
0.32604 0.33743 0.09008
0.36037 0.33780 0.08963
0.39568 0.33819 0.08917
0.43193 0.33859 0.08871
0.46907 0.33900 0.08824
0.50707 0.33943 0.08776
0.54507 0.33986 0.08730
0.58223 0.34029 0.08684
0.61849 0.34071 0.08641
0.65382 0.34112 0.08599
0.68816 0.34153 0.08560
0.72146 0.34192 0.08521
0.75365 0.34231 0.08485
0.78465 0.34269 0.08450
0.81435 0.34305 0.08418
0.84264 0.34340 0.08387
0.86937 0.34373 0.08358
0.89434 0.34404 0.08332
0.91725 0.34433 0.08307
0.93768 0.34458 0.08286
0.95480 0.34480 0.08268
0.96597 0.34494 0.08257
0.05099 0.36932 0.09229
0.06216 0.36943 0.09213
0.07925 0.36961 0.09189
0.09964 0.36982 0.09161
0.12252 0.37006 0.09130
0.14746 0.37032 0.09096
0.17415 0.37061 0.09060
0.20242 0.37091 0.09022
0.23209 0.37123 0.08983
0.26306 0.37156 0.08943
0.29522 0.37192 0.08901
0.32850 0.37228 0.08858
0.36283 0.37267 0.08815
0.39815 0.37307 0.08771
0.43441 0.37348 0.08727
0.47157 0.37391 0.08682
0.50957 0.37435 0.08636
0.54759 0.37479 0.08592
0.58475 0.37523 0.08549
0.62102 0.37567 0.08507
0.65636 0.37609 0.08467
0.69071 0.37651 0.08429
0.72402 0.37692 0.08393
0.75621 0.37732 0.08358
0.78722 0.37771 0.08325
0.81693 0.37808 0.08294
0.84523 0.37844 0.08265
0.87196 0.37878 0.08238
0.89693 0.37910 0.08212
0.91985 0.37939 0.08189
0.94028 0.37966 0.08169
0.95741 0.37988 0.08152
0.96859 0.38003 0.08142
0.05349 0.40512 0.09066
0.06465 0.40524 0.09051
0.08175 0.40542 0.09028
0.10214 0.40564 0.09001
0.12503 0.40589 0.08971
0.14997 0.40616 0.08938
0.17668 0.40645 0.08904
0.20494 0.40676 0.08868
0.23463 0.40709 0.08830
0.26560 0.40744 0.08791
0.29778 0.40781 0.08752
0.33106 0.40819 0.08711
0.36540 0.40858 0.08670
0.40073 0.40899 0.08628
0.43700 0.40942 0.08585
0.47416 0.40986 0.08542
0.51218 0.41032 0.08499
0.55020 0.41077 0.08456
0.58737 0.41123 0.08415
0.62365 0.41168 0.08376
0.65900 0.41212 0.08338
0.69336 0.41255 0.08302
0.72668 0.41297 0.08267
0.75888 0.41338 0.08234
0.78989 0.41378 0.08203
0.81961 0.41416 0.08174
0.84791 0.41453 0.08146
0.87466 0.41488 0.08120
0.89963 0.41521 0.08096
0.92256 0.41551 0.08075
0.94299 0.41578 0.08055
0.96012 0.41601 0.08040
0.97130 0.41616 0.08029
0.05607 0.44191 0.08906
0.06724 0.44204 0.08891
0.08434 0.44222 0.08869
0.10474 0.44245 0.08843
0.12764 0.44271 0.08815
0.15258 0.44299 0.08784
0.17929 0.44329 0.08751
0.20757 0.44361 0.08716
0.23726 0.44396 0.08680
0.26824 0.44432 0.08643
0.30042 0.44469 0.08605
0.33372 0.44508 0.08566
0.36807 0.44549 0.08527
0.40341 0.44592 0.08487
0.43968 0.44636 0.08446
0.47685 0.44681 0.08405
0.51488 0.44728 0.08364
0.55291 0.44776 0.08324
0.59009 0.44822 0.08285
0.62638 0.44869 0.08248
0.66174 0.44914 0.08212
0.69611 0.44958 0.08178
0.72943 0.45002 0.08145
0.76164 0.45044 0.08114
0.79266 0.45085 0.08084
0.82239 0.45124 0.08057
0.85070 0.45162 0.08030
0.87745 0.45198 0.08006
0.90243 0.45232 0.07984
0.92537 0.45263 0.07963
0.94580 0.45291 0.07945
0.96294 0.45315 0.07931
0.97412 0.45330 0.07921
0.05876 0.47966 0.08748
0.06993 0.47979 0.08735
0.08703 0.47998 0.08714
0.10744 0.48022 0.08689
0.13034 0.48048 0.08662
0.15529 0.48077 0.08632
0.18201 0.48109 0.08601
0.21029 0.48142 0.08568
0.23999 0.48177 0.08533
0.27098 0.48214 0.08498
0.30317 0.48253 0.08462
0.33648 0.48294 0.08425
0.37083 0.48336 0.08388
0.40618 0.48380 0.08350
0.44246 0.48425 0.08311
0.47965 0.48472 0.08273
0.51768 0.48521 0.08234
0.55572 0.48570 0.08196
0.59291 0.48618 0.08159
0.62921 0.48665 0.08124
0.66458 0.48712 0.08090
0.69896 0.48758 0.08058
0.73229 0.48802 0.08027
0.76451 0.48846 0.07998
0.79554 0.48888 0.07970
0.82527 0.48929 0.07944
0.85359 0.48968 0.07919
0.88035 0.49005 0.07897
0.90534 0.49040 0.07876
0.92827 0.49072 0.07857
0.94872 0.49101 0.07840
0.96585 0.49125 0.07826
0.97704 0.49141 0.07817
0.06154 0.51832 0.08595
0.07271 0.51845 0.08582
0.08982 0.51866 0.08562
0.11023 0.51890 0.08539
0.13314 0.51917 0.08513
0.15810 0.51947 0.08485
0.18482 0.51980 0.08455
0.21311 0.52014 0.08423
0.24282 0.52051 0.08391
0.27382 0.52089 0.08358
0.30601 0.52129 0.08323
0.33933 0.52171 0.08289
0.37369 0.52215 0.08253
0.40905 0.52260 0.08217
0.44534 0.52307 0.08181
0.48254 0.52355 0.08145
0.52058 0.52405 0.08108
0.55863 0.52455 0.08072
0.59583 0.52505 0.08037
0.63214 0.52554 0.08004
0.66752 0.52602 0.07973
0.70190 0.52649 0.07942
0.73525 0.52695 0.07914
0.76747 0.52740 0.07886
0.79851 0.52783 0.07861
0.82825 0.52825 0.07836
0.85658 0.52865 0.07813
0.88334 0.52904 0.07792
0.90834 0.52939 0.07773
0.93128 0.52972 0.07755
0.95173 0.53002 0.07740
0.96887 0.53027 0.07727
0.98006 0.53043 0.07718
0.06435 0.55703 0.08450
0.07552 0.55717 0.08437
0.09264 0.55738 0.08418
0.11306 0.55763 0.08396
0.13597 0.55791 0.08371
0.16093 0.55822 0.08345
0.18767 0.55856 0.08316
0.21596 0.55892 0.08287
0.24568 0.55929 0.08256
0.27669 0.55969 0.08225
0.30889 0.56010 0.08192
0.34221 0.56053 0.08159
0.37659 0.56098 0.08126
0.41195 0.56145 0.08092
0.44826 0.56193 0.08058
0.48546 0.56243 0.08024
0.52352 0.56295 0.07989
0.56158 0.56347 0.07956
0.59879 0.56398 0.07923
0.63511 0.56448 0.07893
0.67049 0.56497 0.07863
0.70489 0.56546 0.07835
0.73824 0.56593 0.07808
0.77047 0.56639 0.07783
0.80151 0.56684 0.07759
0.83126 0.56727 0.07736
0.85960 0.56768 0.07715
0.88637 0.56807 0.07695
0.91137 0.56844 0.07677
0.93432 0.56878 0.07661
0.95478 0.56909 0.07647
0.97192 0.56934 0.07635
0.98312 0.56951 0.07627
0.06713 0.59493 0.08315
0.07831 0.59507 0.08303
0.09543 0.59529 0.08285
0.11585 0.59554 0.08264
0.13877 0.59584 0.08240
0.16374 0.59616 0.08215
0.19048 0.59650 0.08188
0.21878 0.59687 0.08161
0.24851 0.59726 0.08132
0.27952 0.59766 0.08102
0.31174 0.59809 0.08071
0.34507 0.59854 0.08041
0.37945 0.59900 0.08009
0.41482 0.59948 0.07977
0.45114 0.59998 0.07945
0.48835 0.60049 0.07913
0.52642 0.60102 0.07881
0.56449 0.60155 0.07850
0.60171 0.60208 0.07819
0.63803 0.60260 0.07791
0.67343 0.60310 0.07763
0.70783 0.60360 0.07737
0.74119 0.60409 0.07712
0.77344 0.60456 0.07689
0.80449 0.60502 0.07666
0.83424 0.60546 0.07646
0.86259 0.60588 0.07626
0.88936 0.60629 0.07608
0.91437 0.60666 0.07591
0.93733 0.60701 0.07576
0.95779 0.60732 0.07563
0.97494 0.60759 0.07553
0.98614 0.60776 0.07546
0.06988 0.63196 0.08190
0.08106 0.63210 0.08179
0.09818 0.63233 0.08162
0.11861 0.63259 0.08142
0.14153 0.63289 0.08120
0.16651 0.63322 0.08096
0.19326 0.63358 0.08071
0.22157 0.63396 0.08044
0.25130 0.63436 0.08017
0.28232 0.63478 0.07989
0.31454 0.63521 0.07961
0.34788 0.63567 0.07931
0.38227 0.63615 0.07902
0.41766 0.63664 0.07872
0.45398 0.63715 0.07842
0.49120 0.63768 0.07812
0.52928 0.63822 0.07782
0.56736 0.63877 0.07753
0.60459 0.63931 0.07725
0.64092 0.63984 0.07698
0.67633 0.64036 0.07673
0.71074 0.64087 0.07648
0.74411 0.64137 0.07625
0.77636 0.64186 0.07604
0.80742 0.64233 0.07583
0.83718 0.64278 0.07564
0.86553 0.64321 0.07546
0.89232 0.64363 0.07530
0.91733 0.64401 0.07515
0.94029 0.64437 0.07501
0.96076 0.64469 0.07489
0.97791 0.64496 0.07479
0.98911 0.64514 0.07473
0.07258 0.66808 0.08075
0.08376 0.66823 0.08064
0.10089 0.66846 0.08048
0.12133 0.66873 0.08030
0.14426 0.66904 0.08009
0.16924 0.66938 0.07986
0.19599 0.66974 0.07963
0.22431 0.67013 0.07938
0.25405 0.67054 0.07912
0.28508 0.67097 0.07886
0.31731 0.67142 0.07859
0.35066 0.67189 0.07832
0.38506 0.67238 0.07804
0.42045 0.67289 0.07777
0.45678 0.67341 0.07749
0.49401 0.67395 0.07721
0.53210 0.67451 0.07693
0.57018 0.67507 0.07665
0.60742 0.67563 0.07639
0.64377 0.67617 0.07615
0.67918 0.67670 0.07591
0.71360 0.67723 0.07569
0.74698 0.67774 0.07548
0.77924 0.67824 0.07528
0.81030 0.67872 0.07509
0.84007 0.67918 0.07492
0.86843 0.67963 0.07475
0.89522 0.68005 0.07460
0.92025 0.68044 0.07446
0.94321 0.68081 0.07434
0.96368 0.68114 0.07423
0.98084 0.68141 0.07414
0.99204 0.68159 0.07408
0.07524 0.70323 0.07969
0.08642 0.70338 0.07960
0.10356 0.70362 0.07945
0.12400 0.70390 0.07927
0.14693 0.70422 0.07907
0.17192 0.70456 0.07886
0.19868 0.70494 0.07864
0.22700 0.70534 0.07841
0.25675 0.70576 0.07817
0.28779 0.70620 0.07792
0.32002 0.70666 0.07767
0.35338 0.70714 0.07741
0.38779 0.70764 0.07716
0.42319 0.70816 0.07690
0.45953 0.70870 0.07664
0.49677 0.70925 0.07638
0.53486 0.70982 0.07612
0.57296 0.71040 0.07587
0.61021 0.71097 0.07563
0.64656 0.71152 0.07540
0.68198 0.71207 0.07518
0.71641 0.71261 0.07498
0.74980 0.71313 0.07478
0.78206 0.71364 0.07460
0.81314 0.71413 0.07443
0.84291 0.71461 0.07427
0.87128 0.71506 0.07412
0.89808 0.71549 0.07399
0.92310 0.71590 0.07386
0.94608 0.71627 0.07375
0.96655 0.71661 0.07365
0.98371 0.71689 0.07357
0.99492 0.71707 0.07352
0.07784 0.73735 0.07873
0.08903 0.73750 0.07864
0.10617 0.73775 0.07850
0.12661 0.73803 0.07833
0.14955 0.73836 0.07815
0.17454 0.73872 0.07795
0.20131 0.73910 0.07774
0.22964 0.73951 0.07752
0.25939 0.73994 0.07730
0.29044 0.74039 0.07707
0.32268 0.74086 0.07683
0.35605 0.74136 0.07660
0.39046 0.74187 0.07636
0.42587 0.74240 0.07612
0.46222 0.74295 0.07587
0.49947 0.74352 0.07563
0.53757 0.74410 0.07540
0.57568 0.74469 0.07516
0.61293 0.74527 0.07494
0.64930 0.74584 0.07473
0.68472 0.74640 0.07453
0.71916 0.74695 0.07435
0.75255 0.74748 0.07417
0.78483 0.74800 0.07401
0.81591 0.74851 0.07385
0.84569 0.74899 0.07371
0.87406 0.74946 0.07358
0.90087 0.74990 0.07345
0.92590 0.75031 0.07334
0.94888 0.75069 0.07324
0.96936 0.75103 0.07315
0.98653 0.75132 0.07308
0.99774 0.75151 0.07304
0.08038 0.77036 0.07786
0.09157 0.77052 0.07777
0.10871 0.77077 0.07764
0.12916 0.77106 0.07748
0.15210 0.77140 0.07731
0.17710 0.77176 0.07712
0.20388 0.77215 0.07693
0.23222 0.77257 0.07672
0.26197 0.77301 0.07651
0.29302 0.77348 0.07630
0.32528 0.77396 0.07608
0.35865 0.77447 0.07586
0.39307 0.77499 0.07564
0.42849 0.77553 0.07542
0.46485 0.77609 0.07519
0.50210 0.77667 0.07497
0.54021 0.77727 0.07475
0.57833 0.77787 0.07454
0.61559 0.77846 0.07434
0.65196 0.77905 0.07414
0.68740 0.77962 0.07396
0.72184 0.78018 0.07379
0.75524 0.78072 0.07364
0.78753 0.78125 0.07349
0.81861 0.78177 0.07335
0.84841 0.78226 0.07322
0.87678 0.78274 0.07310
0.90359 0.78319 0.07299
0.92863 0.78361 0.07289
0.95161 0.78400 0.07280
0.97210 0.78435 0.07273
0.98927 0.78464 0.07266
1.00000 0.78483 0.07262
0.08285 0.80218 0.07706
0.09404 0.80235 0.07698
0.11119 0.80260 0.07686
0.13164 0.80290 0.07671
0.15459 0.80324 0.07655
0.17959 0.80361 0.07638
0.20637 0.80402 0.07619
0.23472 0.80444 0.07600
0.26448 0.80489 0.07581
0.29554 0.80537 0.07561
0.32780 0.80586 0.07541
0.36118 0.80638 0.07520
0.39561 0.80691 0.07500
0.43103 0.80747 0.07479
0.46740 0.80804 0.07459
0.50466 0.80863 0.07438
0.54278 0.80924 0.07418
0.58090 0.80985 0.07399
0.61818 0.81046 0.07380
0.65455 0.81105 0.07363
0.69000 0.81164 0.07347
0.72445 0.81221 0.07331
0.75786 0.81276 0.07317
0.79015 0.81330 0.07304
0.82124 0.81383 0.07291
0.85104 0.81433 0.07280
0.87942 0.81481 0.07269
0.90624 0.81527 0.07260
0.93128 0.81570 0.07251
0.95427 0.81610 0.07243
0.97476 0.81645 0.07237
0.99193 0.81675 0.07231
1.00000 0.81695 0.07228
0.08523 0.83271 0.07635
0.09643 0.83288 0.07628
0.11358 0.83314 0.07616
0.13404 0.83344 0.07602
0.15699 0.83379 0.07587
0.18200 0.83417 0.07571
0.20878 0.83458 0.07554
0.23713 0.83502 0.07536
0.26690 0.83548 0.07518
0.29797 0.83596 0.07500
0.33023 0.83646 0.07481
0.36362 0.83699 0.07462
0.39806 0.83754 0.07443
0.43349 0.83810 0.07424
0.46986 0.83868 0.07405
0.50713 0.83929 0.07387
0.54526 0.83991 0.07368
0.58339 0.84053 0.07351
0.62067 0.84115 0.07334
0.65706 0.84176 0.07318
0.69251 0.84235 0.07304
0.72697 0.84293 0.07290
0.76038 0.84350 0.07277
0.79268 0.84405 0.07265
0.82378 0.84458 0.07254
0.85358 0.84509 0.07244
0.88197 0.84559 0.07235
0.90879 0.84605 0.07227
0.93384 0.84649 0.07219
0.95683 0.84690 0.07213
0.97733 0.84726 0.07207
0.99451 0.84756 0.07202
1.00000 0.84776 0.07199
0.08753 0.86181 0.07572
0.09873 0.86199 0.07565
0.11588 0.86225 0.07554
0.13634 0.86256 0.07541
0.15930 0.86292 0.07527
0.18431 0.86330 0.07512
0.21110 0.86372 0.07496
0.23946 0.86416 0.07480
0.26923 0.86463 0.07463
0.30030 0.86513 0.07446
0.33258 0.86564 0.07428
0.36597 0.86618 0.07411
0.40041 0.86673 0.07394
0.43585 0.86731 0.07376
0.47223 0.86790 0.07359
0.50951 0.86852 0.07342
0.54764 0.86915 0.07325
0.58578 0.86979 0.07309
0.62307 0.87041 0.07294
0.65946 0.87103 0.07280
0.69492 0.87163 0.07267
0.72939 0.87222 0.07255
0.76281 0.87280 0.07244
0.79511 0.87336 0.07233
0.82622 0.87390 0.07224
0.85603 0.87442 0.07215
0.88442 0.87492 0.07207
0.91125 0.87540 0.07200
0.93630 0.87584 0.07193
0.95930 0.87626 0.07188
0.97979 0.87662 0.07183
0.99698 0.87693 0.07179
1.00000 0.87713 0.07176
0.08971 0.88934 0.07516
0.10091 0.88951 0.07509
0.11806 0.88978 0.07499
0.13853 0.89010 0.07487
0.16149 0.89046 0.07474
0.18651 0.89085 0.07460
0.21330 0.89128 0.07445
0.24167 0.89173 0.07430
0.27145 0.89220 0.07414
