kmake/parts/lut/classroom-bright.cube
TITLE "K-Maker classroom-bright"
LUT_3D_SIZE 5
DOMAIN_MIN 0 0 0
DOMAIN_MAX 1 1 1
0.02247 0.03502 0.06012
0.25045 0.02983 0.05250
0.55365 0.02303 0.04243
0.85697 0.01636 0.03242
1.00000 0.01142 0.02493
0.00927 0.24981 0.03464
0.23749 0.24485 0.02714
0.54100 0.23837 0.01722
0.84463 0.23201 0.00737
1.00000 0.22730 0.00000
0.00000 0.53659 0.00137
0.22148 0.53194 0.00000
0.52541 0.52587 0.00000
0.82946 0.51993 0.00000
1.00000 0.51554 0.00000
0.00000 0.82477 0.00000
0.20687 0.82043 0.00000
0.51121 0.81478 0.00000
0.81568 0.80924 0.00000
1.00000 0.80517 0.00000
0.00000 1.00000 0.00000
0.19680 1.00000 0.00000
0.50145 1.00000 0.00000
0.80623 1.00000 0.00000
1.00000 1.00000 0.00000
0.02110 0.03325 0.28951
0.24910 0.02808 0.28191
0.55233 0.02131 0.27185
0.85569 0.01467 0.26186
1.00000 0.00976 0.25438
0.00798 0.24812 0.26407
0.23622 0.24318 0.25658
0.53976 0.23673 0.24668
0.84343 0.23040 0.23684
1.00000 0.22572 0.22948
0.00000 0.53500 0.23085
0.22032 0.53038 0.22352
0.52428 0.52434 0.21383
0.82836 0.51843 0.20420
1.00000 0.51406 0.19699
0.00000 0.82329 0.19833
0.20582 0.81897 0.19116
0.51019 0.81335 0.18167
0.81469 0.80785 0.17225
1.00000 0.80380 0.16520
0.00000 1.00000 0.17433
0.19583 1.00000 0.16727
0.50051 1.00000 0.15795
0.80532 1.00000 0.14868
1.00000 1.00000 0.14175
0.01929 0.03091 0.59449
0.24733 0.02577 0.58690
0.55060 0.01905 0.57687
0.85400 0.01244 0.56689
1.00000 0.00756 0.55943
0.00628 0.24588 0.56910
0.23455 0.24098 0.56163
0.53814 0.23457 0.55175
0.84185 0.22828 0.54193
1.00000 0.22363 0.53459
0.00000 0.53291 0.53595
0.21879 0.52832 0.52864
0.52279 0.52232 0.51897
0.82692 0.51645 0.50935
1.00000 0.51211 0.50217
0.00000 0.82133 0.50350
0.20443 0.81705 0.49634
0.50884 0.81147 0.48688
0.81338 0.80601 0.47748
1.00000 0.80199 0.47045
0.00000 1.00000 0.47956
0.19455 1.00000 0.47252
0.49927 1.00000 0.46321
0.80412 1.00000 0.45396
1.00000 1.00000 0.44705
0.01750 0.02858 0.89948
0.24557 0.02347 0.89190
0.54888 0.01679 0.88189
0.85232 0.01023 0.87194
1.00000 0.00538 0.86449
0.00460 0.24366 0.87414
0.23290 0.23879 0.86668
0.53653 0.23242 0.85682
0.84028 0.22617 0.84703
1.00000 0.22156 0.83970
0.00000 0.53083 0.84106
0.21728 0.52627 0.83376
0.52132 0.52031 0.82411
0.82549 0.51448 0.81452
1.00000 0.51018 0.80735
0.00000 0.81939 0.80868
0.20306 0.81514 0.80154
0.50751 0.80960 0.79210
0.81209 0.80419 0.78271
1.00000 0.80019 0.77570
0.00000 1.00000 0.78479
0.19328 1.00000 0.77776
0.49805 1.00000 0.76848
0.80294 1.00000 0.75925
1.00000 1.00000 0.75235
0.01616 0.02684 1.00000
0.24425 0.02175 1.00000
0.54760 0.01510 1.00000
0.85107 0.00858 1.00000
1.00000 0.00375 1.00000
0.00334 0.24200 1.00000
0.23166 0.23715 1.00000
0.53532 0.23081 1.00000
0.83910 0.22460 1.00000
1.00000 0.22000 1.00000
0.00000 0.52927 1.00000
0.21615 0.52473 1.00000
0.52022 0.51881 1.00000
0.82442 0.51301 1.00000
1.00000 0.50873 1.00000
0.00000 0.81794 1.00000
0.20203 0.81372 1.00000
0.50652 0.80821 1.00000
0.81113 0.80282 1.00000
1.00000 0.79885 1.00000
0.00000 1.00000 1.00000
0.19234 1.00000 1.00000
0.49714 1.00000 0.99810
0.80206 1.00000 0.98889
1.00000 1.00000 0.98200
