kmake/parts/lut/classroom-bright.cube
TITLE "K-Maker classroom-bright"
LUT_3D_SIZE 33
DOMAIN_MIN 0 0 0
DOMAIN_MAX 1 1 1
0.02247 0.03502 0.06012
0.04050 0.03461 0.05952
0.06447 0.03406 0.05871
0.09136 0.03345 0.05782
0.12033 0.03278 0.05685
0.15095 0.03209 0.05582
0.18296 0.03136 0.05475
0.21617 0.03060 0.05365
0.25045 0.02983 0.05250
0.28568 0.02903 0.05133
0.32179 0.02822 0.05013
0.35871 0.02739 0.04890
0.39638 0.02654 0.04765
0.43475 0.02568 0.04637
0.47377 0.02481 0.04508
0.51341 0.02393 0.04376
0.55365 0.02303 0.04243
0.59388 0.02214 0.04110
0.63353 0.02126 0.03979
0.67257 0.02040 0.03850
0.71095 0.01955 0.03723
0.74863 0.01873 0.03599
0.78557 0.01792 0.03477
0.82171 0.01713 0.03358
0.85697 0.01636 0.03242
0.89127 0.01561 0.03129
0.92452 0.01489 0.03020
0.95656 0.01419 0.02915
0.98722 0.01353 0.02814
1.00000 0.01290 0.02719
1.00000 0.01232 0.02631
1.00000 0.01181 0.02552
1.00000 0.01142 0.02493
0.02139 0.05199 0.05809
0.03943 0.05157 0.05749
0.06341 0.05103 0.05669
0.09029 0.05041 0.05579
0.11926 0.04975 0.05482
0.14989 0.04906 0.05380
0.18190 0.04833 0.05273
0.21511 0.04758 0.05162
0.24939 0.04681 0.05048
0.28463 0.04602 0.04931
0.32075 0.04520 0.04811
0.35767 0.04438 0.04688
0.39534 0.04353 0.04563
0.43371 0.04268 0.04436
0.47273 0.04181 0.04307
0.51238 0.04093 0.04175
0.55262 0.04004 0.04042
0.59285 0.03915 0.03909
0.63251 0.03827 0.03778
0.67155 0.03742 0.03649
0.70993 0.03657 0.03523
0.74762 0.03575 0.03399
0.78456 0.03494 0.03277
0.82070 0.03416 0.03158
0.85596 0.03339 0.03042
0.89027 0.03264 0.02930
0.92352 0.03193 0.02821
0.95556 0.03123 0.02716
0.98622 0.03057 0.02615
1.00000 0.02995 0.02520
1.00000 0.02937 0.02432
1.00000 0.02886 0.02353
1.00000 0.02847 0.02294
0.01998 0.07454 0.05539
0.03801 0.07413 0.05479
0.06199 0.07359 0.05399
0.08888 0.07298 0.05310
0.11785 0.07233 0.05213
0.14848 0.07163 0.05111
0.18050 0.07091 0.05004
0.21372 0.07016 0.04894
0.24800 0.06939 0.04780
0.28324 0.06860 0.04663
0.31936 0.06780 0.04543
0.35629 0.06697 0.04421
0.39396 0.06613 0.04296
0.43233 0.06528 0.04169
0.47136 0.06442 0.04040
0.51102 0.06354 0.03908
0.55126 0.06265 0.03776
0.59150 0.06177 0.03643
0.63116 0.06090 0.03512
0.67020 0.06005 0.03383
0.70859 0.05921 0.03257
0.74628 0.05839 0.03133
0.78322 0.05758 0.03012
0.81937 0.05680 0.02893
0.85464 0.05604 0.02777
0.88895 0.05530 0.02665
0.92220 0.05458 0.02556
0.95425 0.05389 0.02451
0.98491 0.05324 0.02351
1.00000 0.05262 0.02256
1.00000 0.05204 0.02168
1.00000 0.05153 0.02090
1.00000 0.05114 0.02031
0.01840 0.09985 0.05238
0.03643 0.09944 0.05178
0.06042 0.09890 0.05098
0.08731 0.09830 0.05008
0.11629 0.09764 0.04912
0.14692 0.09696 0.04810
0.17894 0.09624 0.04704
0.21216 0.09549 0.04593
0.24645 0.09473 0.04480
0.28169 0.09394 0.04363
0.31782 0.09314 0.04243
0.35475 0.09232 0.04121
0.39242 0.09149 0.03996
0.43080 0.09064 0.03869
0.46984 0.08978 0.03741
0.50949 0.08891 0.03610
0.54974 0.08803 0.03477
0.58999 0.08715 0.03345
0.62965 0.08628 0.03214
0.66870 0.08543 0.03086
0.70709 0.08460 0.02960
0.74478 0.08378 0.02836
0.78174 0.08298 0.02715
0.81788 0.08221 0.02596
0.85316 0.08145 0.02481
0.88747 0.08071 0.02368
0.92073 0.08000 0.02260
0.95278 0.07931 0.02155
0.98345 0.07866 0.02055
1.00000 0.07804 0.01960
1.00000 0.07747 0.01872
1.00000 0.07696 0.01794
1.00000 0.07658 0.01735
0.01671 0.12713 0.04913
0.03475 0.12673 0.04853
0.05873 0.12619 0.04774
0.08563 0.12558 0.04684
0.11461 0.12494 0.04588
0.14524 0.12425 0.04486
0.17727 0.12354 0.04380
0.21049 0.12280 0.04270
0.24479 0.12204 0.04157
0.28004 0.12126 0.04040
0.31617 0.12046 0.03921
0.35310 0.11964 0.03799
0.39078 0.11881 0.03674
0.42917 0.11797 0.03548
0.46821 0.11712 0.03419
0.50787 0.11625 0.03288
0.54812 0.11537 0.03156
0.58837 0.11450 0.03024
0.62804 0.11364 0.02893
0.66709 0.11280 0.02765
0.70549 0.11197 0.02640
0.74319 0.11116 0.02516
0.78015 0.11036 0.02395
0.81630 0.10959 0.02277
0.85158 0.10884 0.02162
0.88590 0.10810 0.02050
0.91916 0.10740 0.01941
0.95121 0.10672 0.01837
0.98188 0.10607 0.01737
1.00000 0.10545 0.01642
1.00000 0.10488 0.01555
1.00000 0.10438 0.01476
1.00000 0.10400 0.01418
0.01493 0.15598 0.04571
0.03298 0.15558 0.04511
0.05697 0.15504 0.04431
0.08386 0.15444 0.04342
0.11285 0.15380 0.04246
0.14349 0.15312 0.04145
0.17552 0.15241 0.04039
0.20875 0.15168 0.03929
0.24304 0.15092 0.03816
0.27830 0.15014 0.03699
0.31443 0.14935 0.03580
0.35137 0.14854 0.03459
0.38906 0.14772 0.03334
0.42745 0.14688 0.03208
0.46650 0.14603 0.03080
0.50616 0.14517 0.02949
0.54642 0.14430 0.02817
0.58668 0.14343 0.02685
0.62635 0.14257 0.02555
0.66541 0.14174 0.02428
0.70381 0.14091 0.02302
0.74152 0.14011 0.02179
0.77848 0.13932 0.02058
0.81463 0.13855 0.01940
0.84992 0.13780 0.01825
0.88424 0.13707 0.01713
0.91751 0.13637 0.01605
0.94957 0.13569 0.01501
0.98024 0.13505 0.01401
1.00000 0.13444 0.01307
1.00000 0.13388 0.01219
1.00000 0.13337 0.01141
1.00000 0.13299 0.01083
0.01310 0.18615 0.04214
0.03114 0.18575 0.04154
0.05513 0.18522 0.04075
0.08204 0.18463 0.03986
0.11103 0.18398 0.03890
0.14167 0.18331 0.03789
0.17370 0.18260 0.03683
0.20694 0.18188 0.03573
0.24124 0.18112 0.03460
0.27650 0.18035 0.03344
0.31264 0.17956 0.03225
0.34958 0.17876 0.03104
0.38728 0.17794 0.02980
0.42567 0.17711 0.02854
0.46472 0.17627 0.02726
0.50440 0.17541 0.02596
0.54466 0.17455 0.02464
0.58492 0.17368 0.02332
0.62460 0.17283 0.02203
0.66366 0.17200 0.02075
0.70207 0.17118 0.01950
0.73978 0.17038 0.01827
0.77675 0.16960 0.01706
0.81291 0.16884 0.01589
0.84820 0.16809 0.01474
0.88253 0.16737 0.01362
0.91580 0.16667 0.01254
0.94787 0.16600 0.01150
0.97855 0.16536 0.01051
1.00000 0.16475 0.00957
1.00000 0.16419 0.00870
1.00000 0.16369 0.00792
1.00000 0.16332 0.00733
0.01121 0.21747 0.03844
0.02925 0.21707 0.03785
0.05325 0.21655 0.03705
0.08016 0.21595 0.03617
0.10915 0.21532 0.03521
0.13980 0.21465 0.03420
0.17184 0.21395 0.03315
0.20508 0.21322 0.03205
0.23938 0.21248 0.03092
0.27465 0.21171 0.02977
0.31079 0.21093 0.02858
0.34774 0.21013 0.02737
0.38544 0.20932 0.02613
0.42384 0.20849 0.02487
0.46290 0.20765 0.02360
0.50258 0.20680 0.02230
0.54285 0.20595 0.02098
0.58312 0.20509 0.01967
0.62280 0.20425 0.01838
0.66187 0.20342 0.01710
0.70029 0.20261 0.01585
0.73800 0.20181 0.01463
0.77497 0.20103 0.01343
0.81114 0.20028 0.01225
0.84644 0.19954 0.01111
0.88077 0.19882 0.00999
0.91405 0.19813 0.00892
0.94612 0.19746 0.00788
0.97680 0.19682 0.00688
1.00000 0.19622 0.00595
1.00000 0.19567 0.00508
1.00000 0.19517 0.00430
1.00000 0.19480 0.00372
0.00927 0.24981 0.03464
0.02732 0.24942 0.03404
0.05132 0.24889 0.03325
0.07823 0.24831 0.03237
0.10723 0.24767 0.03141
0.13789 0.24701 0.03040
0.16993 0.24631 0.02935
0.20317 0.24559 0.02826
0.23749 0.24485 0.02714
0.27276 0.24409 0.02598
0.30891 0.24332 0.02480
0.34586 0.24252 0.02359
0.38357 0.24172 0.02236
0.42197 0.24090 0.02110
0.46104 0.24006 0.01983
0.50072 0.23922 0.01853
0.54100 0.23837 0.01722
0.58127 0.23752 0.01591
0.62097 0.23668 0.01462
0.66004 0.23586 0.01335
0.69846 0.23505 0.01210
0.73618 0.23426 0.01088
0.77316 0.23349 0.00968
0.80933 0.23274 0.00851
0.84463 0.23201 0.00737
0.87897 0.23129 0.00625
0.91225 0.23061 0.00518
0.94433 0.22995 0.00414
0.97502 0.22931 0.00315
1.00000 0.22872 0.00222
1.00000 0.22816 0.00135
1.00000 0.22767 0.00058
1.00000 0.22730 0.00000
0.00730 0.28307 0.03073
0.02536 0.28268 0.03014
0.04936 0.28216 0.02935
0.07628 0.28158 0.02847
0.10528 0.28095 0.02752
0.13594 0.28029 0.02651
0.16799 0.27960 0.02546
0.20124 0.27889 0.02437
0.23555 0.27815 0.02325
0.27083 0.27740 0.02210
0.30699 0.27663 0.02092
0.34395 0.27584 0.01971
0.38166 0.27504 0.01848
0.42007 0.27422 0.01723
0.45914 0.27340 0.01596
0.49883 0.27256 0.01467
0.53911 0.27171 0.01336
0.57940 0.27087 0.01205
0.61909 0.27004 0.01076
0.65817 0.26922 0.00950
0.69660 0.26842 0.00825
0.73433 0.26764 0.00703
0.77131 0.26688 0.00584
0.80749 0.26613 0.00467
0.84280 0.26540 0.00353
0.87714 0.26470 0.00242
0.91043 0.26401 0.00135
0.94251 0.26336 0.00031
0.97320 0.26273 0.00000
1.00000 0.26214 0.00000
1.00000 0.26159 0.00000
1.00000 0.26110 0.00000
1.00000 0.26073 0.00000
0.00531 0.31718 0.02674
0.02336 0.31679 0.02615
0.04737 0.31627 0.02536
0.07429 0.31570 0.02448
0.10330 0.31507 0.02353
0.13396 0.31442 0.02253
0.16601 0.31373 0.02149
0.19927 0.31302 0.02040
0.23359 0.31229 0.01928
0.26888 0.31155 0.01813
0.30504 0.31078 0.01695
0.34201 0.31000 0.01575
0.37972 0.30920 0.01452
0.41814 0.30840 0.01327
0.45722 0.30758 0.01201
0.49692 0.30675 0.01072
0.53720 0.30591 0.00941
0.57749 0.30507 0.00811
0.61720 0.30425 0.00682
0.65628 0.30344 0.00556
0.69471 0.30264 0.00432
0.73245 0.30187 0.00310
0.76944 0.30111 0.00191
0.80562 0.30037 0.00074
0.84093 0.29964 0.00000
0.87529 0.29894 0.00000
0.90858 0.29827 0.00000
0.94066 0.29761 0.00000
0.97136 0.29699 0.00000
1.00000 0.29641 0.00000
1.00000 0.29586 0.00000
1.00000 0.29538 0.00000
1.00000 0.29501 0.00000
0.00328 0.35207 0.02267
0.02134 0.35168 0.02208
0.04535 0.35117 0.02130
0.07228 0.35059 0.02042
0.10129 0.34998 0.01947
0.13196 0.34933 0.01847
0.16402 0.34865 0.01743
0.19728 0.34794 0.01635
0.23161 0.34722 0.01523
0.26690 0.34648 0.01408
0.30307 0.34572 0.01291
0.34004 0.34494 0.01171
0.37776 0.34415 0.01048
0.41619 0.34335 0.00924
0.45527 0.34254 0.00797
0.49498 0.34172 0.00669
0.53527 0.34088 0.00539
0.57556 0.34005 0.00409
0.61528 0.33923 0.00281
0.65437 0.33843 0.00155
0.69281 0.33765 0.00031
0.73055 0.33687 0.00000
0.76754 0.33612 0.00000
0.80374 0.33539 0.00000
0.83905 0.33467 0.00000
0.87341 0.33398 0.00000
0.90670 0.33330 0.00000
0.93880 0.33266 0.00000
0.96950 0.33204 0.00000
0.99855 0.33146 0.00000
1.00000 0.33092 0.00000
1.00000 0.33044 0.00000
1.00000 0.33008 0.00000
0.00124 0.38768 0.01853
0.01931 0.38730 0.01795
0.04332 0.38679 0.01716
0.07025 0.38622 0.01629
0.09927 0.38561 0.01534
0.12994 0.38496 0.01434
0.16200 0.38429 0.01330
0.19527 0.38359 0.01222
0.22961 0.38287 0.01111
0.26490 0.38214 0.00997
0.30108 0.38138 0.00879
0.33806 0.38061 0.00760
0.37579 0.37983 0.00638
0.41422 0.37904 0.00513
0.45331 0.37823 0.00387
0.49302 0.37741 0.00259
0.53332 0.37659 0.00129
0.57362 0.37576 0.00000
0.61334 0.37495 0.00000
0.65244 0.37416 0.00000
0.69088 0.37338 0.00000
0.72863 0.37261 0.00000
0.76563 0.37186 0.00000
0.80183 0.37114 0.00000
0.83715 0.37043 0.00000
0.87152 0.36974 0.00000
0.90482 0.36907 0.00000
0.93691 0.36843 0.00000
0.96762 0.36782 0.00000
0.99667 0.36724 0.00000
1.00000 0.36671 0.00000
1.00000 0.36623 0.00000
1.00000 0.36587 0.00000
0.00000 0.42398 0.01433
0.01725 0.42360 0.01374
0.04127 0.42309 0.01296
0.06821 0.42253 0.01209
0.09723 0.42192 0.01114
0.12791 0.42128 0.01015
0.15997 0.42061 0.00911
0.19325 0.41992 0.00803
0.22759 0.41921 0.00692
0.26289 0.41848 0.00578
0.29907 0.41773 0.00461
0.33606 0.41697 0.00342
0.37379 0.41619 0.00220
0.41223 0.41540 0.00096
0.45133 0.41460 0.00000
0.49105 0.41379 0.00000
0.53135 0.41298 0.00000
0.57166 0.41216 0.00000
0.61139 0.41135 0.00000
0.65049 0.41056 0.00000
0.68895 0.40979 0.00000
0.72670 0.40903 0.00000
0.76371 0.40829 0.00000
0.79991 0.40757 0.00000
0.83524 0.40687 0.00000
0.86961 0.40618 0.00000
0.90292 0.40552 0.00000
0.93502 0.40489 0.00000
0.96573 0.40428 0.00000
0.99479 0.40371 0.00000
1.00000 0.40318 0.00000
1.00000 0.40271 0.00000
1.00000 0.40235 0.00000
0.00000 0.46092 0.01006
0.01519 0.46054 0.00948
0.03921 0.46004 0.00870
0.06615 0.45948 0.00783
0.09517 0.45888 0.00689
0.12586 0.45824 0.00590
0.15793 0.45758 0.00486
0.19121 0.45689 0.00378
0.22556 0.45619 0.00268
0.26087 0.45546 0.00154
0.29705 0.45472 0.00037
0.33405 0.45397 0.00000
0.37179 0.45320 0.00000
0.41023 0.45242 0.00000
0.44934 0.45162 0.00000
0.48906 0.45082 0.00000
0.52938 0.45001 0.00000
0.56969 0.44920 0.00000
0.60943 0.44840 0.00000
0.64854 0.44762 0.00000
0.68700 0.44685 0.00000
0.72476 0.44610 0.00000
0.76177 0.44537 0.00000
0.79798 0.44465 0.00000
0.83332 0.44395 0.00000
0.86769 0.44327 0.00000
0.90100 0.44262 0.00000
0.93311 0.44199 0.00000
0.96383 0.44139 0.00000
0.99289 0.44082 0.00000
1.00000 0.44030 0.00000
1.00000 0.43983 0.00000
1.00000 0.43948 0.00000
0.00000 0.49846 0.00574
0.01311 0.49809 0.00516
0.03714 0.49759 0.00438
0.06408 0.49704 0.00351
0.09311 0.49644 0.00257
0.12380 0.49581 0.00158
0.15588 0.49516 0.00055
0.18917 0.49448 0.00000
0.22352 0.49377 0.00000
0.25884 0.49306 0.00000
0.29503 0.49232 0.00000
0.33203 0.49157 0.00000
0.36978 0.49081 0.00000
0.40823 0.49004 0.00000
0.44734 0.48925 0.00000
0.48707 0.48846 0.00000
0.52739 0.48765 0.00000
0.56772 0.48685 0.00000
0.60746 0.48606 0.00000
0.64658 0.48528 0.00000
0.68504 0.48452 0.00000
0.72281 0.48378 0.00000
0.75983 0.48305 0.00000
0.79605 0.48234 0.00000
0.83139 0.48165 0.00000
0.86577 0.48098 0.00000
0.89909 0.48033 0.00000
0.93120 0.47971 0.00000
0.96193 0.47911 0.00000
0.99099 0.47855 0.00000
1.00000 0.47803 0.00000
1.00000 0.47756 0.00000
1.00000 0.47722 0.00000
0.00000 0.53659 0.00137
0.01103 0.53622 0.00078
0.03506 0.53573 0.00001
0.06201 0.53518 0.00000
0.09105 0.53459 0.00000
0.12174 0.53396 0.00000
0.15383 0.53331 0.00000
0.18712 0.53264 0.00000
0.22148 0.53194 0.00000
0.25680 0.53123 0.00000
0.29300 0.53050 0.00000
0.33000 0.52976 0.00000
0.36776 0.52901 0.00000
0.40622 0.52824 0.00000
0.44534 0.52746 0.00000
0.48508 0.52667 0.00000
0.52541 0.52587 0.00000
0.56574 0.52508 0.00000
0.60548 0.52430 0.00000
0.64461 0.52353 0.00000
0.68308 0.52277 0.00000
0.72086 0.52204 0.00000
0.75789 0.52132 0.00000
0.79411 0.52061 0.00000
0.82946 0.51993 0.00000
0.86384 0.51926 0.00000
0.89717 0.51862 0.00000
0.92929 0.51800 0.00000
0.96002 0.51741 0.00000
0.98909 0.51686 0.00000
1.00000 0.51634 0.00000
1.00000 0.51588 0.00000
1.00000 0.51554 0.00000
0.00000 0.57474 0.00000
0.00897 0.57438 0.00000
0.03301 0.57389 0.00000
0.05996 0.57334 0.00000
0.08900 0.57276 0.00000
0.11971 0.57214 0.00000
0.15180 0.57149 0.00000
0.18510 0.57082 0.00000
0.21946 0.57014 0.00000
0.25479 0.56943 0.00000
0.29099 0.56871 0.00000
0.32801 0.56797 0.00000
0.36577 0.56723 0.00000
0.40423 0.56647 0.00000
0.44336 0.56569 0.00000
0.48311 0.56491 0.00000
0.52344 0.56412 0.00000
0.56378 0.56333 0.00000
0.60353 0.56256 0.00000
0.64267 0.56180 0.00000
0.68115 0.56105 0.00000
0.71893 0.56032 0.00000
0.75596 0.55961 0.00000
0.79219 0.55891 0.00000
0.82755 0.55823 0.00000
0.86194 0.55757 0.00000
0.89527 0.55694 0.00000
0.92740 0.55632 0.00000
0.95813 0.55574 0.00000
0.98721 0.55519 0.00000
1.00000 0.55468 0.00000
1.00000 0.55422 0.00000
1.00000 0.55388 0.00000
0.00000 0.61236 0.00000
0.00697 0.61200 0.00000
0.03101 0.61152 0.00000
0.05797 0.61098 0.00000
0.08702 0.61039 0.00000
0.11772 0.60978 0.00000
0.14982 0.60914 0.00000
0.18312 0.60848 0.00000
0.21750 0.60780 0.00000
0.25283 0.60710 0.00000
0.28904 0.60638 0.00000
0.32606 0.60565 0.00000
0.36383 0.60491 0.00000
0.40230 0.60416 0.00000
0.44143 0.60340 0.00000
0.48119 0.60262 0.00000
0.52153 0.60184 0.00000
0.56188 0.60106 0.00000
0.60164 0.60029 0.00000
0.64078 0.59953 0.00000
0.67926 0.59879 0.00000
0.71705 0.59807 0.00000
0.75409 0.59736 0.00000
0.79033 0.59667 0.00000
0.82569 0.59600 0.00000
0.86009 0.59535 0.00000
0.89343 0.59472 0.00000
0.92556 0.59411 0.00000
0.95630 0.59353 0.00000
0.98538 0.59299 0.00000
1.00000 0.59248 0.00000
1.00000 0.59203 0.00000
1.00000 0.59169 0.00000
0.00000 0.64942 0.00000
0.00502 0.64906 0.00000
0.02907 0.64858 0.00000
0.05603 0.64804 0.00000
0.08508 0.64747 0.00000
0.11579 0.64686 0.00000
0.14790 0.64623 0.00000
0.18121 0.64557 0.00000
0.21558 0.64489 0.00000
0.25092 0.64420 0.00000
0.28714 0.64349 0.00000
0.32417 0.64277 0.00000
0.36194 0.64204 0.00000
0.40042 0.64129 0.00000
0.43956 0.64053 0.00000
0.47932 0.63976 0.00000
0.51967 0.63899 0.00000
0.56003 0.63821 0.00000
0.59979 0.63745 0.00000
0.63894 0.63670 0.00000
0.67743 0.63597 0.00000
0.71523 0.63525 0.00000
0.75228 0.63455 0.00000
0.78852 0.63387 0.00000
0.82389 0.63320 0.00000
0.85829 0.63256 0.00000
0.89163 0.63193 0.00000
0.92377 0.63133 0.00000
0.95452 0.63076 0.00000
0.98360 0.63022 0.00000
1.00000 0.62972 0.00000
1.00000 0.62927 0.00000
1.00000 0.62893 0.00000
0.00000 0.68588 0.00000
0.00313 0.68552 0.00000
0.02718 0.68504 0.00000
0.05414 0.68451 0.00000
0.08320 0.68394 0.00000
0.11392 0.68334 0.00000
0.14603 0.68271 0.00000
0.17934 0.68206 0.00000
0.21373 0.68139 0.00000
0.24907 0.68070 0.00000
0.28530 0.68000 0.00000
0.32233 0.67929 0.00000
0.36011 0.67856 0.00000
0.39860 0.67782 0.00000
0.43774 0.67707 0.00000
0.47751 0.67631 0.00000
0.51787 0.67554 0.00000
0.55823 0.67477 0.00000
0.59800 0.67401 0.00000
0.63716 0.67327 0.00000
0.67566 0.67255 0.00000
0.71346 0.67184 0.00000
0.75051 0.67114 0.00000
0.78676 0.67046 0.00000
0.82213 0.66980 0.00000
0.85655 0.66916 0.00000
0.88989 0.66855 0.00000
0.92204 0.66795 0.00000
0.95279 0.66738 0.00000
0.98188 0.66685 0.00000
1.00000 0.66635 0.00000
1.00000 0.66591 0.00000
1.00000 0.66558 0.00000
0.00000 0.72169 0.00000
0.00129 0.72134 0.00000
0.02534 0.72087 0.00000
0.05232 0.72034 0.00000
0.08138 0.71977 0.00000
0.11210 0.71918 0.00000
0.14422 0.71855 0.00000
0.17754 0.71791 0.00000
0.21193 0.71724 0.00000
0.24728 0.71656 0.00000
0.28351 0.71587 0.00000
0.32055 0.71516 0.00000
0.35834 0.71444 0.00000
0.39683 0.71370 0.00000
0.43598 0.71296 0.00000
0.47575 0.71220 0.00000
0.51612 0.71144 0.00000
0.55649 0.71068 0.00000
0.59627 0.70993 0.00000
0.63543 0.70920 0.00000
0.67393 0.70848 0.00000
0.71174 0.70778 0.00000
0.74880 0.70709 0.00000
0.78506 0.70642 0.00000
0.82044 0.70576 0.00000
0.85485 0.70513 0.00000
0.88821 0.70451 0.00000
0.92035 0.70392 0.00000
0.95111 0.70336 0.00000
0.98021 0.70283 0.00000
1.00000 0.70234 0.00000
1.00000 0.70190 0.00000
1.00000 0.70157 0.00000
0.00000 0.75682 0.00000
0.00000 0.75647 0.00000
0.02357 0.75600 0.00000
0.05055 0.75548 0.00000
0.07961 0.75492 0.00000
0.11034 0.75432 0.00000
0.14246 0.75371 0.00000
0.17579 0.75307 0.00000
0.21018 0.75241 0.00000
0.24554 0.75173 0.00000
0.28178 0.75104 0.00000
0.31882 0.75034 0.00000
0.35662 0.74962 0.00000
0.39512 0.74890 0.00000
0.43427 0.74816 0.00000
0.47405 0.74741 0.00000
0.51443 0.74666 0.00000
0.55480 0.74590 0.00000
0.59459 0.74516 0.00000
0.63375 0.74443 0.00000
0.67227 0.74372 0.00000
0.71008 0.74302 0.00000
0.74715 0.74234 0.00000
0.78341 0.74168 0.00000
0.81879 0.74103 0.00000
0.85322 0.74040 0.00000
0.88657 0.73979 0.00000
0.91873 0.73921 0.00000
0.94949 0.73865 0.00000
0.97859 0.73812 0.00000
1.00000 0.73763 0.00000
1.00000 0.73720 0.00000
1.00000 0.73687 0.00000
0.00000 0.79120 0.00000
0.00000 0.79085 0.00000
0.02185 0.79039 0.00000
0.04883 0.78987 0.00000
0.07790 0.78931 0.00000
0.10864 0.78873 0.00000
0.14076 0.78811 0.00000
0.17409 0.78748 0.00000
0.20849 0.78683 0.00000
0.24386 0.78616 0.00000
0.28010 0.78547 0.00000
0.31715 0.78478 0.00000
0.35495 0.78407 0.00000
0.39346 0.78334 0.00000
0.43262 0.78261 0.00000
0.47241 0.78187 0.00000
0.51279 0.78112 0.00000
0.55317 0.78038 0.00000
0.59296 0.77964 0.00000
0.63214 0.77892 0.00000
0.67066 0.77821 0.00000
0.70848 0.77752 0.00000
0.74555 0.77685 0.00000
0.78181 0.77619 0.00000
0.81721 0.77554 0.00000
0.85164 0.77492 0.00000
0.88500 0.77432 0.00000
0.91716 0.77374 0.00000
0.94792 0.77319 0.00000
0.97703 0.77266 0.00000
1.00000 0.77218 0.00000
1.00000 0.77175 0.00000
1.00000 0.77143 0.00000
0.00000 0.82477 0.00000
0.00000 0.82442 0.00000
0.02020 0.82396 0.00000
0.04718 0.82345 0.00000
0.07626 0.82290 0.00000
0.10700 0.82231 0.00000
0.13913 0.82171 0.00000
0.17246 0.82108 0.00000
0.20687 0.82043 0.00000
0.24224 0.81977 0.00000
0.27849 0.81909 0.00000
0.31554 0.81840 0.00000
0.35335 0.81769 0.00000
0.39186 0.81698 0.00000
0.43103 0.81625 0.00000
0.47083 0.81552 0.00000
0.51121 0.81478 0.00000
0.55160 0.81404 0.00000
0.59140 0.81331 0.00000
0.63058 0.81259 0.00000
0.66910 0.81189 0.00000
0.70693 0.81121 0.00000
0.74401 0.81054 0.00000
0.78028 0.80988 0.00000
0.81568 0.80924 0.00000
0.85011 0.80863 0.00000
0.88348 0.80803 0.00000
0.91564 0.80746 0.00000
0.94641 0.80691 0.00000
0.97553 0.80639 0.00000
1.00000 0.80591 0.00000
1.00000 0.80549 0.00000
1.00000 0.80517 0.00000
0.00000 0.85744 0.00000
0.00000 0.85710 0.00000
0.01860 0.85664 0.00000
0.04559 0.85613 0.00000
0.07467 0.85558 0.00000
0.10542 0.85501 0.00000
0.13755 0.85441 0.00000
0.17089 0.85378 0.00000
0.20530 0.85314 0.00000
0.24068 0.85248 0.00000
0.27693 0.85181 0.00000
0.31399 0.85112 0.00000
0.35181 0.85042 0.00000
0.39033 0.84972 0.00000
0.42950 0.84900 0.00000
0.46930 0.84827 0.00000
0.50969 0.84753 0.00000
0.55009 0.84680 0.00000
0.58989 0.84608 0.00000
0.62908 0.84537 0.00000
0.66761 0.84467 0.00000
0.70544 0.84399 0.00000
0.74253 0.84333 0.00000
0.77880 0.84268 0.00000
0.81420 0.84205 0.00000
0.84865 0.84144 0.00000
0.88202 0.84084 0.00000
0.91419 0.84027 0.00000
0.94496 0.83973 0.00000
0.97408 0.83922 0.00000
1.00000 0.83874 0.00000
1.00000 0.83832 0.00000
1.00000 0.83800 0.00000
0.00000 0.88912 0.00000
0.00000 0.88878 0.00000
0.01708 0.88832 0.00000
0.04407 0.88782 0.00000
0.07315 0.88728 0.00000
0.10390 0.88670 0.00000
0.13604 0.88611 0.00000
0.16939 0.88549 0.00000
0.20381 0.88485 0.00000
0.23919 0.88420 0.00000
0.27544 0.88353 0.00000
0.31251 0.88285 0.00000
0.35033 0.88216 0.00000
0.38885 0.88145 0.00000
0.42804 0.88074 0.00000
0.46784 0.88002 0.00000
0.50824 0.87929 0.00000
0.54864 0.87856 0.00000
0.58845 0.87784 0.00000
0.62764 0.87714 0.00000
0.66618 0.87645 0.00000
0.70402 0.87578 0.00000
0.74111 0.87512 0.00000
0.77739 0.87448 0.00000
0.81280 0.87385 0.00000
0.84724 0.87324 0.00000
0.88062 0.87266 0.00000
0.91279 0.87209 0.00000
0.94358 0.87155 0.00000
0.97270 0.87104 0.00000
0.99972 0.87057 0.00000
1.00000 0.87015 0.00000
1.00000 0.86984 0.00000
0.00000 0.91966 0.00000
0.00000 0.91933 0.00000
0.01562 0.91888 0.00000
0.04262 0.91838 0.00000
0.07171 0.91784 0.00000
0.10246 0.91727 0.00000
0.13460 0.91668 0.00000
0.16796 0.91606 0.00000
0.20238 0.91543 0.00000
