kmake/parts/lut/classroom-bright.cube
TITLE "K-Maker classroom-bright"
LUT_3D_SIZE 9
DOMAIN_MIN 0 0 0
DOMAIN_MAX 1 1 1
0.02247 0.03502 0.06012
0.12033 0.03278 0.05685
0.25045 0.02983 0.05250
0.39638 0.02654 0.04765
0.55365 0.02303 0.04243
0.71095 0.01955 0.03723
0.85697 0.01636 0.03242
0.98722 0.01353 0.02814
1.00000 0.01142 0.02493
0.01671 0.12713 0.04913
0.11461 0.12494 0.04588
0.24479 0.12204 0.04157
0.39078 0.11881 0.03674
0.54812 0.11537 0.03156
0.70549 0.11197 0.02640
0.85158 0.10884 0.02162
0.98188 0.10607 0.01737
1.00000 0.10400 0.01418
0.00927 0.24981 0.03464
0.10723 0.24767 0.03141
0.23749 0.24485 0.02714
0.38357 0.24172 0.02236
0.54100 0.23837 0.01722
0.69846 0.23505 0.01210
0.84463 0.23201 0.00737
0.97502 0.22931 0.00315
1.00000 0.22730 0.00000
0.00124 0.38768 0.01853
0.09927 0.38561 0.01534
0.22961 0.38287 0.01111
0.37579 0.37983 0.00638
0.53332 0.37659 0.00129
0.69088 0.37338 0.00000
0.83715 0.37043 0.00000
0.96762 0.36782 0.00000
1.00000 0.36587 0.00000
0.00000 0.53659 0.00137
0.09105 0.53459 0.00000
0.22148 0.53194 0.00000
0.36776 0.52901 0.00000
0.52541 0.52587 0.00000
0.68308 0.52277 0.00000
0.82946 0.51993 0.00000
0.96002 0.51741 0.00000
1.00000 0.51554 0.00000
0.00000 0.68588 0.00000
0.08320 0.68394 0.00000
0.21373 0.68139 0.00000
0.36011 0.67856 0.00000
0.51787 0.67554 0.00000
0.67566 0.67255 0.00000
0.82213 0.66980 0.00000
0.95279 0.66738 0.00000
1.00000 0.66558 0.00000
0.00000 0.82477 0.00000
0.07626 0.82290 0.00000
0.20687 0.82043 0.00000
0.35335 0.81769 0.00000
0.51121 0.81478 0.00000
0.66910 0.81189 0.00000
0.81568 0.80924 0.00000
0.94641 0.80691 0.00000
1.00000 0.80517 0.00000
0.00000 0.94890 0.00000
0.07034 0.94709 0.00000
0.20102 0.94470 0.00000
0.34759 0.94205 0.00000
0.50554 0.93923 0.00000
0.66353 0.93643 0.00000
0.81019 0.93387 0.00000
0.94100 0.93161 0.00000
1.00000 0.92993 0.00000
0.00000 1.00000 0.00000
0.06605 1.00000 0.00000
0.19680 1.00000 0.00000
0.34343 1.00000 0.00000
0.50145 1.00000 0.00000
0.65951 1.00000 0.00000
0.80623 1.00000 0.00000
0.93710 1.00000 0.00000
1.00000 1.00000 0.00000
0.02188 0.03426 0.15860
0.11974 0.03203 0.15532
0.24987 0.02908 0.15098
0.39581 0.02580 0.14613
0.55308 0.02229 0.14092
0.71039 0.01882 0.13572
0.85642 0.01563 0.13091
0.98667 0.01281 0.12664
1.00000 0.01070 0.12343
0.01613 0.12638 0.14761
0.11404 0.12419 0.14436
0.24422 0.12130 0.14005
0.39023 0.11808 0.13523
0.54757 0.11465 0.13005
0.70495 0.11125 0.12489
0.85104 0.10813 0.12012
0.98135 0.10536 0.11587
1.00000 0.10330 0.11268
0.00872 0.24908 0.13313
0.10668 0.24695 0.12991
0.23694 0.24414 0.12563
0.38303 0.24100 0.12085
0.54047 0.23766 0.11572
0.69794 0.23436 0.11061
0.84412 0.23132 0.10588
0.97450 0.22863 0.10167
1.00000 0.22662 0.09851
0.00071 0.38698 0.11704
0.09874 0.38491 0.11385
0.22908 0.38218 0.10962
0.37527 0.37914 0.10489
0.53281 0.37591 0.09981
0.69038 0.37270 0.09474
0.83666 0.36976 0.09006
0.96713 0.36716 0.08589
1.00000 0.36521 0.08277
0.00000 0.53591 0.09988
0.09054 0.53391 0.09673
0.22098 0.53127 0.09254
0.36727 0.52834 0.08786
0.52492 0.52522 0.08284
0.68260 0.52212 0.07783
0.82898 0.51928 0.07320
0.95955 0.51677 0.06908
1.00000 0.51490 0.06599
0.00000 0.68522 0.08291
0.08272 0.68329 0.07979
0.21325 0.68074 0.07565
0.35965 0.67792 0.07103
0.51741 0.67490 0.06606
0.67520 0.67192 0.06111
0.82169 0.66918 0.05653
0.95235 0.66677 0.05245
1.00000 0.66496 0.04940
0.00000 0.82413 0.06733
0.07580 0.82226 0.06424
0.20642 0.81980 0.06015
0.35290 0.81707 0.05557
0.51077 0.81416 0.05065
0.66867 0.81129 0.04575
0.81525 0.80865 0.04122
0.94599 0.80632 0.03719
1.00000 0.80458 0.03417
0.00000 0.94829 0.05357
0.06990 0.94648 0.05051
0.20059 0.94410 0.04646
0.34717 0.94145 0.04192
0.50512 0.93863 0.03705
0.66312 0.93585 0.03220
0.80978 0.93329 0.02771
0.94060 0.93104 0.02372
1.00000 0.92936 0.02072
0.00000 1.00000 0.04331
0.06563 1.00000 0.04027
0.19638 1.00000 0.03624
0.34302 1.00000 0.03174
0.50105 1.00000 0.02690
0.65911 1.00000 0.02209
0.80584 1.00000 0.01763
0.93672 1.00000 0.01366
1.00000 1.00000 0.01069
0.02110 0.03325 0.28951
0.11897 0.03102 0.28625
0.24910 0.02808 0.28191
0.39505 0.02481 0.27706
0.55233 0.02131 0.27185
0.70965 0.01785 0.26666
0.85569 0.01467 0.26186
0.98595 0.01186 0.25759
1.00000 0.00976 0.25438
0.01537 0.12539 0.27854
0.11328 0.12321 0.27530
0.24348 0.12032 0.27099
0.38949 0.11712 0.26617
0.54684 0.11369 0.26100
0.70423 0.11030 0.25584
0.85033 0.10718 0.25107
0.98065 0.10443 0.24683
1.00000 0.10237 0.24364
0.00798 0.24812 0.26407
0.10595 0.24599 0.26085
0.23622 0.24318 0.25658
0.38232 0.24006 0.25181
0.53976 0.23673 0.24668
0.69724 0.23343 0.24157
0.84343 0.23040 0.23684
0.97383 0.22772 0.23264
1.00000 0.22572 0.22948
0.00000 0.38604 0.24799
0.09804 0.38398 0.24481
0.22839 0.38126 0.24058
0.37459 0.37823 0.23585
0.53214 0.37500 0.23078
0.68972 0.37181 0.22572
0.83600 0.36887 0.22104
0.96648 0.36628 0.21688
1.00000 0.36434 0.21376
0.00000 0.53500 0.23085
0.08987 0.53301 0.22770
0.22032 0.53038 0.22352
0.36662 0.52746 0.21885
0.52428 0.52434 0.21383
0.68197 0.52126 0.20882
0.82836 0.51843 0.20420
0.95894 0.51593 0.20008
1.00000 0.51406 0.19699
0.00000 0.68434 0.21390
0.08209 0.68242 0.21078
0.21262 0.67988 0.20665
0.35903 0.67706 0.20203
0.51680 0.67406 0.19706
0.67460 0.67109 0.19212
0.82109 0.66836 0.18754
0.95176 0.66595 0.18347
1.00000 0.66415 0.18042
0.00000 0.82329 0.19833
0.07519 0.82143 0.19525
0.20582 0.81897 0.19116
0.35231 0.81625 0.18658
0.51019 0.81335 0.18167
0.66810 0.81048 0.17678
0.81469 0.80785 0.17225
0.94544 0.80553 0.16822
1.00000 0.80380 0.16520
0.00000 0.94747 0.18459
0.06932 0.94567 0.18153
0.20002 0.94329 0.17748
0.34660 0.94065 0.17295
0.50457 0.93785 0.16808
0.66257 0.93507 0.16323
0.80924 0.93252 0.15875
0.94007 0.93028 0.15476
1.00000 0.92860 0.15177
0.00000 1.00000 0.17433
0.06507 1.00000 0.17130
0.19583 1.00000 0.16727
0.34247 1.00000 0.16278
0.50051 1.00000 0.15795
0.65858 1.00000 0.15313
0.80532 1.00000 0.14868
0.93621 1.00000 0.14472
1.00000 1.00000 0.14175
0.02023 0.03212 0.43632
0.11810 0.02990 0.43305
0.24825 0.02697 0.42872
0.39420 0.02370 0.42388
0.55150 0.02022 0.41867
0.70882 0.01677 0.41349
0.85487 0.01360 0.40869
0.98514 0.01079 0.40442
1.00000 0.00870 0.40122
0.01452 0.12429 0.42536
0.11244 0.12211 0.42211
0.24264 0.11923 0.41781
0.38866 0.11603 0.41300
0.54603 0.11262 0.40783
0.70342 0.10924 0.40268
0.84954 0.10613 0.39791
0.97986 0.10338 0.39367
1.00000 0.10133 0.39049
0.00716 0.24704 0.41090
0.10514 0.24492 0.40768
0.23542 0.24212 0.40342
0.38152 0.23901 0.39865
0.53898 0.23569 0.39353
0.69647 0.23240 0.38842
0.84267 0.22938 0.38370
0.97307 0.22671 0.37950
1.00000 0.22471 0.37635
0.00000 0.38499 0.39484
0.09726 0.38294 0.39165
0.22762 0.38022 0.38743
0.37382 0.37721 0.38271
0.53138 0.37399 0.37764
0.68898 0.37081 0.37259
0.83527 0.36788 0.36791
0.96576 0.36530 0.36376
1.00000 0.36337 0.36064
0.00000 0.53399 0.37771
0.08913 0.53201 0.37457
0.21958 0.52939 0.37039
0.36589 0.52647 0.36572
0.52356 0.52337 0.36071
0.68127 0.52030 0.35571
0.82766 0.51747 0.35109
0.95825 0.51498 0.34698
1.00000 0.51312 0.34389
0.00000 0.68337 0.36078
0.08137 0.68145 0.35767
0.21192 0.67892 0.35354
0.35833 0.67611 0.34892
0.51612 0.67312 0.34396
0.67393 0.67016 0.33902
0.82043 0.66744 0.33445
0.95111 0.66504 0.33038
1.00000 0.66325 0.32733
0.00000 0.82234 0.34523
0.07451 0.82049 0.34215
0.20515 0.81805 0.33806
0.35165 0.81533 0.33349
0.50954 0.81244 0.32859
0.66746 0.80959 0.32370
0.81406 0.80696 0.31917
0.94482 0.80465 0.31515
1.00000 0.80292 0.31213
0.00000 0.94655 0.33150
0.06867 0.94476 0.32845
0.19938 0.94239 0.32440
0.34597 0.93977 0.31987
0.50395 0.93697 0.31501
0.66196 0.93420 0.31017
0.80864 0.93167 0.30569
0.93948 0.92943 0.30170
1.00000 0.92776 0.29871
0.00000 1.00000 0.32126
0.06444 1.00000 0.31822
0.19521 1.00000 0.31420
0.34187 1.00000 0.30971
0.49991 1.00000 0.30489
0.65799 1.00000 0.30008
0.80474 1.00000 0.29563
0.93564 1.00000 0.29167
1.00000 1.00000 0.28870
0.01929 0.03091 0.59449
0.11718 0.02869 0.59123
0.24733 0.02577 0.58690
0.39330 0.02252 0.58206
0.55060 0.01905 0.57687
0.70794 0.01561 0.57169
0.85400 0.01244 0.56689
0.98428 0.00965 0.56263
1.00000 0.00756 0.55943
0.01361 0.12310 0.58354
0.11154 0.12092 0.58030
0.24175 0.11806 0.57600
0.38778 0.11487 0.57120
0.54515 0.11147 0.56604
0.70256 0.10810 0.56089
0.84868 0.10500 0.55613
0.97902 0.10226 0.55189
1.00000 0.10022 0.54872
0.00628 0.24588 0.56910
0.10427 0.24377 0.56589
0.23455 0.24098 0.56163
0.38067 0.23788 0.55686
0.53814 0.23457 0.55175
0.69564 0.23129 0.54665
0.84185 0.22828 0.54193
0.97226 0.22562 0.53773
1.00000 0.22363 0.53459
0.00000 0.38387 0.55306
0.09642 0.38182 0.54988
0.22679 0.37912 0.54566
0.37301 0.37611 0.54095
0.53058 0.37291 0.53588
0.68818 0.36973 0.53083
0.83449 0.36682 0.52616
0.96499 0.36424 0.52201
1.00000 0.36232 0.51889
0.00000 0.53291 0.53595
0.08833 0.53093 0.53281
0.21879 0.52832 0.52864
0.36511 0.52542 0.52397
0.52279 0.52232 0.51897
0.68051 0.51926 0.51397
0.82692 0.51645 0.50935
0.95751 0.51396 0.50525
1.00000 0.51211 0.50217
0.00000 0.68232 0.51904
0.08061 0.68041 0.51593
0.21117 0.67789 0.51180
0.35759 0.67509 0.50719
0.51538 0.67211 0.50224
0.67321 0.66916 0.49730
0.81972 0.66645 0.49273
0.95041 0.66406 0.48867
1.00000 0.66228 0.48563
0.00000 0.82133 0.50350
0.07379 0.81948 0.50043
0.20443 0.81705 0.49634
0.35095 0.81435 0.49178
0.50884 0.81147 0.48688
0.66677 0.80862 0.48200
0.81338 0.80601 0.47748
0.94415 0.80371 0.47346
1.00000 0.80199 0.47045
0.00000 0.94557 0.48979
0.06797 0.94379 0.48674
0.19869 0.94143 0.48270
0.34530 0.93881 0.47818
0.50328 0.93603 0.47332
0.66131 0.93327 0.46848
0.80800 0.93075 0.46401
0.93885 0.92852 0.46003
1.00000 0.92686 0.45704
0.00000 1.00000 0.47956
0.06377 1.00000 0.47653
0.19455 1.00000 0.47252
0.34121 1.00000 0.46803
0.49927 1.00000 0.46321
0.65736 1.00000 0.45840
0.80412 1.00000 0.45396
0.93503 1.00000 0.45001
1.00000 1.00000 0.44705
0.01836 0.02970 0.75267
0.11625 0.02749 0.74941
0.24641 0.02458 0.74509
0.39239 0.02133 0.74025
0.54971 0.01787 0.73506
0.70706 0.01445 0.72989
0.85313 0.01130 0.72510
0.98342 0.00851 0.72084
1.00000 0.00643 0.71765
0.01270 0.12191 0.74173
0.11064 0.11975 0.73849
0.24086 0.11689 0.73420
0.38690 0.11371 0.72940
0.54428 0.11032 0.72424
0.70170 0.10696 0.71910
0.84784 0.10388 0.71435
0.97818 0.10115 0.71012
1.00000 0.09911 0.70694
0.00541 0.24473 0.72730
0.10340 0.24262 0.72410
0.23369 0.23984 0.71984
0.37982 0.23675 0.71508
0.53730 0.23345 0.70997
0.69481 0.23019 0.70488
0.84103 0.22718 0.70016
0.97145 0.22453 0.69597
1.00000 0.22255 0.69283
0.00000 0.38275 0.71128
0.09559 0.38071 0.70810
0.22597 0.37801 0.70389
0.37219 0.37502 0.69918
0.52977 0.37182 0.69412
0.68739 0.36866 0.68908
0.83370 0.36576 0.68441
0.96421 0.36319 0.68027
1.00000 0.36128 0.67715
0.00000 0.53183 0.69419
0.08753 0.52985 0.69105
0.21801 0.52725 0.68689
0.36433 0.52436 0.68223
0.52203 0.52128 0.67722
0.67975 0.51823 0.67224
0.82617 0.51543 0.66763
0.95678 0.51295 0.66352
1.00000 0.51111 0.66045
0.00000 0.68128 0.67730
0.07985 0.67937 0.67419
0.21042 0.67686 0.67007
0.35685 0.67408 0.66546
0.51466 0.67111 0.66052
0.67250 0.66817 0.65559
0.81902 0.66547 0.65102
0.94971 0.66309 0.64697
1.00000 0.66131 0.64393
0.00000 0.82032 0.66178
0.07306 0.81848 0.65871
0.20372 0.81606 0.65463
0.35024 0.81337 0.65007
0.50815 0.81050 0.64518
0.66609 0.80766 0.64030
0.81271 0.80506 0.63578
0.94349 0.80277 0.63177
1.00000 0.80106 0.62876
0.00000 0.94460 0.64808
0.06728 0.94282 0.64504
0.19801 0.94047 0.64100
0.34462 0.93786 0.63648
0.50262 0.93509 0.63163
0.66066 0.93234 0.62680
0.80736 0.92983 0.62233
0.93822 0.92761 0.61836
1.00000 0.92595 0.61537
0.00000 1.00000 0.63786
0.06310 1.00000 0.63484
0.19389 1.00000 0.63083
0.34057 1.00000 0.62634
0.49864 1.00000 0.62153
0.65674 1.00000 0.61673
0.80351 1.00000 0.61229
0.93442 1.00000 0.60835
1.00000 1.00000 0.60539
0.01750 0.02858 0.89948
0.11540 0.02638 0.89622
0.24557 0.02347 0.89190
0.39156 0.02024 0.88708
0.54888 0.01679 0.88189
0.70624 0.01337 0.87672
0.85232 0.01023 0.87194
0.98262 0.00745 0.86768
1.00000 0.00538 0.86449
0.01187 0.12081 0.88855
0.10980 0.11865 0.88532
0.24003 0.11581 0.88103
0.38608 0.11264 0.87623
0.54348 0.10926 0.87108
0.70091 0.10591 0.86594
0.84705 0.10283 0.86119
0.97741 0.10011 0.85697
1.00000 0.09808 0.85380
0.00460 0.24366 0.87414
0.10259 0.24156 0.87093
0.23290 0.23879 0.86668
0.37904 0.23571 0.86193
0.53653 0.23242 0.85682
0.69405 0.22916 0.85173
0.84028 0.22617 0.84703
0.97071 0.22353 0.84284
1.00000 0.22156 0.83970
0.00000 0.38172 0.85813
0.09482 0.37968 0.85496
0.22521 0.37699 0.85075
0.37144 0.37401 0.84604
0.52903 0.37082 0.84099
0.68666 0.36767 0.83595
0.83298 0.36478 0.83129
0.96350 0.36222 0.82715
1.00000 0.36031 0.82404
0.00000 0.53083 0.84106
0.08680 0.52886 0.83792
0.21728 0.52627 0.83376
0.36362 0.52338 0.82911
0.52132 0.52031 0.82411
0.67906 0.51727 0.81913
0.82549 0.51448 0.81452
0.95610 0.51202 0.81042
1.00000 0.51018 0.80735
0.00000 0.68031 0.82418
0.07915 0.67842 0.82108
0.20973 0.67591 0.81696
0.35617 0.67314 0.81236
0.51399 0.67018 0.80742
0.67183 0.66725 0.80249
0.81837 0.66456 0.79794
0.94907 0.66219 0.79389
1.00000 0.66042 0.79085
0.00000 0.81939 0.80868
0.07240 0.81756 0.80561
0.20306 0.81514 0.80154
0.34959 0.81246 0.79699
0.50751 0.80960 0.79210
0.66547 0.80678 0.78722
0.81209 0.80419 0.78271
0.94288 0.80190 0.77871
1.00000 0.80019 0.77570
0.00000 0.94369 0.79500
0.06664 0.94192 0.79196
0.19738 0.93958 0.78792
0.34400 0.93698 0.78341
0.50201 0.93422 0.77857
0.66006 0.93149 0.77374
0.80677 0.92898 0.76927
0.93764 0.92677 0.76530
1.00000 0.92512 0.76232
0.00000 1.00000 0.78479
0.06248 1.00000 0.78177
0.19328 1.00000 0.77776
0.33997 1.00000 0.77328
0.49805 1.00000 0.76848
0.65616 1.00000 0.76368
0.80294 1.00000 0.75925
0.93386 1.00000 0.75531
1.00000 1.00000 0.75235
0.01674 0.02758 1.00000
0.11464 0.02539 1.00000
0.24482 0.02249 1.00000
0.39081 0.01927 1.00000
0.54815 0.01583 1.00000
0.70552 0.01242 1.00000
0.85160 0.00929 1.00000
0.98191 0.00652 0.99864
1.00000 0.00445 0.99545
0.01112 0.11984 1.00000
0.10907 0.11768 1.00000
0.23930 0.11484 1.00000
0.38536 0.11169 1.00000
0.54277 0.10831 1.00000
0.70021 0.10498 0.99690
0.84636 0.10191 0.99216
0.97672 0.09920 0.98793
1.00000 0.09717 0.98477
0.00388 0.24271 1.00000
0.10188 0.24062 1.00000
0.23219 0.23785 0.99764
0.37834 0.23478 0.99289
0.53584 0.23150 0.98779
0.69337 0.22825 0.98270
0.83961 0.22527 0.97800
0.97005 0.22264 0.97382
1.00000 0.22067 0.97068
0.00000 0.38080 0.98909
0.09413 0.37877 0.98592
0.22453 0.37609 0.98172
0.37077 0.37311 0.97702
0.52837 0.36994 0.97197
0.68601 0.36679 0.96694
0.83234 0.36391 0.96228
0.96287 0.36136 0.95814
1.00000 0.35945 0.95503
0.00000 0.52994 0.97204
0.08614 0.52798 0.96891
0.21663 0.52539 0.96475
0.36298 0.52252 0.96010
0.52069 0.51945 0.95511
0.67844 0.51642 0.95013
0.82488 0.51364 0.94553
0.95550 0.51118 0.94143
1.00000 0.50935 0.93836
0.00000 0.67945 0.95518
0.07853 0.67756 0.95208
0.20911 0.67507 0.94797
0.35557 0.67230 0.94337
0.51339 0.66935 0.93843
0.67125 0.66643 0.93351
0.81779 0.66375 0.92896
0.94850 0.66139 0.92491
1.00000 0.65962 0.92187
0.00000 0.81856 0.93969
0.07180 0.81673 0.93663
0.20247 0.81433 0.93256
0.34902 0.81165 0.92801
0.50695 0.80881 0.92312
0.66491 0.80599 0.91825
0.81155 0.80341 0.91375
0.94234 0.80113 0.90974
1.00000 0.79943 0.90674
0.00000 0.94289 0.92602
0.06608 0.94112 0.92298
0.19682 0.93879 0.91895
0.34345 0.93620 0.91444
0.50147 0.93345 0.90961
0.65953 0.93072 0.90478
0.80625 0.92823 0.90032
0.93712 0.92602 0.89636
1.00000 0.92438 0.89338
0.00000 1.00000 0.91582
0.06194 1.00000 0.91280
0.19274 1.00000 0.90880
0.33944 1.00000 0.90433
0.49753 1.00000 0.89952
0.65565 1.00000 0.89474
0.80244 1.00000 0.89031
0.93337 1.00000 0.88637
1.00000 1.00000 0.88341
0.01616 0.02684 1.00000
0.11407 0.02465 1.00000
0.24425 0.02175 1.00000
0.39026 0.01854 1.00000
0.54760 0.01510 1.00000
0.70497 0.01170 1.00000
0.85107 0.00858 1.00000
0.98138 0.00581 1.00000
1.00000 0.00375 1.00000
0.01056 0.11910 1.00000
0.10851 0.11696 1.00000
0.23875 0.11412 1.00000
0.38482 0.11097 1.00000
0.54223 0.10761 1.00000
0.69968 0.10427 1.00000
0.84584 0.10121 1.00000
0.97620 0.09851 1.00000
1.00000 0.09649 1.00000
0.00334 0.24200 1.00000
0.10135 0.23991 1.00000
0.23166 0.23715 1.00000
0.37782 0.23408 1.00000
0.53532 0.23081 1.00000
0.69286 0.22757 1.00000
0.83910 0.22460 1.00000
0.96955 0.22197 1.00000
1.00000 0.22000 1.00000
0.00000 0.38010 1.00000
0.09362 0.37808 1.00000
0.22402 0.37541 1.00000
0.37027 0.37244 1.00000
0.52788 0.36927 1.00000
0.68552 0.36613 1.00000
0.83186 0.36325 1.00000
0.96239 0.36071 1.00000
1.00000 0.35881 1.00000
0.00000 0.52927 1.00000
0.08566 0.52731 1.00000
0.21615 0.52473 1.00000
0.36250 0.52187 1.00000
0.52022 0.51881 1.00000
0.67798 0.51579 1.00000
0.82442 0.51301 1.00000
0.95505 0.51056 1.00000
1.00000 0.50873 1.00000
0.00000 0.67881 1.00000
0.07807 0.67692 1.00000
0.20865 0.67444 1.00000
0.35511 0.67167 1.00000
0.51294 0.66873 1.00000
0.67081 0.66582 1.00000
0.81736 0.66314 1.00000
0.94807 0.66079 1.00000
1.00000 0.65903 1.00000
0.00000 0.81794 1.00000
0.07136 0.81612 1.00000
0.20203 0.81372 1.00000
0.34859 0.81105 1.00000
0.50652 0.80821 1.00000
0.66449 0.80540 1.00000
0.81113 0.80282 1.00000
0.94194 0.80055 1.00000
1.00000 0.79885 1.00000
0.00000 0.94229 1.00000
0.06565 0.94052 1.00000
0.19640 0.93820 1.00000
0.34304 0.93562 1.00000
0.50107 0.93287 1.00000
0.65913 0.93015 1.00000
0.80586 0.92766 0.99889
0.93674 0.92547 0.99493
1.00000 0.92383 0.99196
0.00000 1.00000 1.00000
0.06153 1.00000 1.00000
0.19234 1.00000 1.00000
0.33904 1.00000 1.00000
0.49714 1.00000 0.99810
0.65527 1.00000 0.99331
0.80206 1.00000 0.98889
0.93300 1.00000 0.98495
1.00000 1.00000 0.98200
