kmake/parts/lut/warm-memory.cube
TITLE "K-Maker warm-memory"
LUT_3D_SIZE 5
DOMAIN_MIN 0 0 0
DOMAIN_MAX 1 1 1
0.08147 0.06015 0.02806
0.27828 0.06505 0.03538
0.49801 0.07071 0.04319
0.71824 0.07658 0.05062
0.91635 0.08204 0.05697
0.09352 0.27102 0.05150
0.29168 0.27651 0.05781
0.51292 0.28283 0.06449
0.73466 0.28936 0.07079
0.93412 0.29542 0.07612
0.11230 0.50828 0.07360
0.31197 0.51443 0.07878
0.53489 0.52148 0.08419
0.75830 0.52875 0.08923
0.95927 0.53546 0.09344
0.13673 0.74801 0.09146
0.33791 0.75481 0.09551
0.56250 0.76260 0.09966
0.78760 0.77061 0.10345
0.99007 0.77798 0.10652
0.16347 0.96531 0.10388
0.36600 0.97270 0.10692
0.59210 0.98115 0.10995
0.81870 0.98981 0.11260
1.00000 0.99778 0.11466
0.08248 0.06179 0.22429
0.27943 0.06675 0.23151
0.49931 0.07247 0.23920
0.71969 0.07842 0.24652
0.91794 0.08394 0.25276
0.09499 0.27286 0.24738
0.29329 0.27841 0.25359
0.51468 0.28479 0.26015
0.73657 0.29140 0.26634
0.93616 0.29751 0.27157
0.11428 0.51035 0.26909
0.31409 0.51655 0.27417
0.53716 0.52367 0.27947
0.76072 0.53101 0.28440
0.96183 0.53778 0.28851
0.13922 0.75030 0.28657
0.34054 0.75717 0.29052
0.56529 0.76502 0.29456
0.79053 0.77309 0.29823
0.99314 0.78052 0.30121
0.16642 0.96780 0.29865
0.36909 0.97525 0.30159
0.59534 0.98377 0.30450
0.82209 0.99250 0.30704
1.00000 1.00000 0.30900
0.08366 0.06365 0.44285
0.28076 0.06867 0.44996
0.50081 0.07447 0.45752
0.72136 0.08049 0.46471
0.91976 0.08607 0.47084
0.09668 0.27494 0.46556
0.29513 0.28055 0.47166
0.51669 0.28701 0.47809
0.73875 0.29369 0.48415
0.93850 0.29987 0.48927
0.11654 0.51267 0.48685
0.31651 0.51895 0.49181
0.53974 0.52614 0.49698
0.76348 0.53355 0.50178
0.96473 0.54039 0.50577
0.14206 0.75288 0.50390
0.34352 0.75981 0.50773
0.56844 0.76774 0.51164
0.79385 0.77588 0.51519
0.99662 0.78338 0.51805
0.16977 0.97060 0.51559
0.37258 0.97812 0.51841
0.59901 0.98671 0.52120
0.82593 0.99551 0.52361
1.00000 1.00000 0.52546
0.08489 0.06553 0.66137
0.28215 0.07061 0.66836
0.50237 0.07649 0.67580
0.72309 0.08258 0.68286
0.92164 0.08823 0.68888
0.09843 0.27704 0.68370
0.29703 0.28272 0.68968
0.51876 0.28926 0.69598
0.74099 0.29601 0.70191
0.94089 0.30225 0.70692
0.11886 0.51503 0.70455
0.31898 0.52136 0.70940
0.54238 0.52863 0.71445
0.76629 0.53612 0.71912
0.96770 0.54302 0.72300
0.14495 0.75548 0.72118
0.34656 0.76248 0.72490
0.57165 0.77048 0.72868
0.79723 0.77870 0.73210
1.00000 0.78626 0.73484
0.17317 0.97342 0.73249
0.37614 0.98101 0.73519
0.60273 0.98967 0.73785
0.82982 0.99855 0.74014
1.00000 1.00000 0.74187
0.08605 0.06723 0.85748
0.28344 0.07238 0.86437
0.50382 0.07832 0.87170
0.72469 0.08448 0.87864
0.92338 0.09020 0.88456
0.10005 0.27895 0.87947
0.29879 0.28469 0.88534
0.52067 0.29129 0.89154
0.74305 0.29811 0.89735
0.94309 0.30442 0.90226
0.12099 0.51716 0.89994
0.32124 0.52356 0.90469
0.54480 0.53089 0.90962
0.76886 0.53844 0.91418
0.97041 0.54541 0.91795
0.14759 0.75784 0.91618
0.34934 0.76489 0.91980
0.57458 0.77296 0.92347
0.80032 0.78125 0.92677
1.00000 0.78887 0.92941
0.17627 0.97598 0.92715
0.37938 0.98363 0.92975
0.60612 0.99236 0.93230
0.83336 1.00000 0.93447
1.00000 1.00000 0.93610
