kmake/parts/lut/warm-memory.cube
TITLE "K-Maker warm-memory"
LUT_3D_SIZE 9
DOMAIN_MIN 0 0 0
DOMAIN_MAX 1 1 1
0.08147 0.06015 0.02806
0.17451 0.06244 0.03156
0.27828 0.06505 0.03538
0.38659 0.06781 0.03928
0.49801 0.07071 0.04319
0.60956 0.07366 0.04700
0.71824 0.07658 0.05062
0.82259 0.07944 0.05400
0.91635 0.08204 0.05697
0.08660 0.15965 0.03957
0.17995 0.16208 0.04285
0.28405 0.16482 0.04642
0.39271 0.16774 0.05005
0.50449 0.17080 0.05369
0.61640 0.17391 0.05723
0.72544 0.17699 0.06058
0.83012 0.17999 0.06372
0.92419 0.18273 0.06646
0.09352 0.27102 0.05150
0.18721 0.27359 0.05452
0.29168 0.27651 0.05781
0.40074 0.27960 0.06115
0.51292 0.28283 0.06449
0.62523 0.28611 0.06773
0.73466 0.28936 0.07079
0.83972 0.29253 0.07364
0.93412 0.29542 0.07612
0.10208 0.38773 0.06293
0.19612 0.39046 0.06569
0.30099 0.39354 0.06868
0.41045 0.39681 0.07171
0.52305 0.40022 0.07473
0.63578 0.40369 0.07766
0.74561 0.40712 0.08041
0.85107 0.41046 0.08297
0.94582 0.41350 0.08519
0.11230 0.50828 0.07360
0.20670 0.51117 0.07608
0.31197 0.51443 0.07878
0.42186 0.51788 0.08149
0.53489 0.52148 0.08419
0.64805 0.52514 0.08679
0.75830 0.52875 0.08923
0.86416 0.53227 0.09149
0.95927 0.53546 0.09344
0.12398 0.62946 0.08318
0.21874 0.63251 0.08539
0.32441 0.63594 0.08778
0.43471 0.63958 0.09019
0.54818 0.64337 0.09256
0.66177 0.64722 0.09484
0.77244 0.65101 0.09697
0.87870 0.65470 0.09892
0.97418 0.65806 0.10060
0.13673 0.74801 0.09146
0.23185 0.75121 0.09341
0.33791 0.75481 0.09551
0.44862 0.75863 0.09760
0.56250 0.76260 0.09966
0.67652 0.76663 0.10163
0.78760 0.77061 0.10345
0.89424 0.77447 0.10511
0.99007 0.77798 0.10652
0.15026 0.86227 0.09843
0.24571 0.86561 0.10013
0.35215 0.86939 0.10195
0.46325 0.87337 0.10375
0.57753 0.87752 0.10551
0.69195 0.88173 0.10717
0.80342 0.88587 0.10869
0.91044 0.88990 0.11007
1.00000 0.89356 0.11124
0.16347 0.96531 0.10388
0.25922 0.96878 0.10536
0.36600 0.97270 0.10692
0.47745 0.97684 0.10846
0.59210 0.98115 0.10995
0.70688 0.98551 0.11134
0.81870 0.98981 0.11260
0.92606 0.99399 0.11372
1.00000 0.99778 0.11466
0.08194 0.06093 0.12089
0.17502 0.06323 0.12437
0.27882 0.06585 0.12816
0.38716 0.06863 0.13203
0.49862 0.07154 0.13591
0.61020 0.07451 0.13970
0.71892 0.07745 0.14329
0.82330 0.08032 0.14665
0.91709 0.08294 0.14959
0.08717 0.16047 0.13232
0.18056 0.16291 0.13557
0.28469 0.16567 0.13912
0.39339 0.16861 0.14272
0.50521 0.17167 0.14633
0.61715 0.17480 0.14985
0.72622 0.17790 0.15318
0.83094 0.18091 0.15628
0.92503 0.18367 0.15900
0.09421 0.27189 0.14416
0.18793 0.27448 0.14716
0.29244 0.27740 0.15042
0.40153 0.28051 0.15374
0.51375 0.28375 0.15705
0.62609 0.28706 0.16026
0.73555 0.29032 0.16329
0.84065 0.29351 0.16612
0.93508 0.29640 0.16858
0.10289 0.38865 0.15550
0.19696 0.39139 0.15824
0.30186 0.39449 0.16120
0.41136 0.39778 0.16421
0.52399 0.40120 0.16720
0.63676 0.40469 0.17010
0.74663 0.40813 0.17283
0.85212 0.41149 0.17536
0.94690 0.41454 0.17756
0.11323 0.50926 0.16608
0.20766 0.51215 0.16854
0.31297 0.51543 0.17121
0.42289 0.51890 0.17390
0.53596 0.52251 0.17657
0.64915 0.52619 0.17914
0.75944 0.52982 0.18156
0.86533 0.53335 0.18379
0.96048 0.53656 0.18572
0.12503 0.63049 0.17557
0.21982 0.63355 0.17776
0.32553 0.63700 0.18012
0.43587 0.64065 0.18250
0.54937 0.64446 0.18485
0.66300 0.64832 0.18710
0.77370 0.65213 0.18920
0.88000 0.65584 0.19113
0.97550 0.65921 0.19278
0.13791 0.74909 0.18376
0.23305 0.75230 0.18569
0.33915 0.75592 0.18776
0.44989 0.75975 0.18983
0.56381 0.76374 0.19186
0.67786 0.76779 0.19380
0.78898 0.77178 0.19559
0.89566 0.77566 0.19722
0.99152 0.77918 0.19862
0.15154 0.86340 0.19064
0.24702 0.86676 0.19232
0.35350 0.87055 0.19411
0.46464 0.87455 0.19589
0.57896 0.87871 0.19762
0.69341 0.88293 0.19925
0.80492 0.88710 0.20075
0.91197 0.89114 0.20210
1.00000 0.89481 0.20325
0.16486 0.96648 0.19602
0.26064 0.96997 0.19747
0.36746 0.97391 0.19901
0.47894 0.97806 0.20052
0.59363 0.98238 0.20198
0.70844 0.98676 0.20334
0.82030 0.99108 0.20458
0.92769 0.99527 0.20568
1.00000 0.99907 0.20659
0.08248 0.06179 0.22429
0.17559 0.06412 0.22774
0.27943 0.06675 0.23151
0.38781 0.06954 0.23535
0.49931 0.07247 0.23920
0.61093 0.07546 0.24295
0.71969 0.07842 0.24652
0.82411 0.08131 0.24985
0.91794 0.08394 0.25276
0.08783 0.16139 0.23564
0.18124 0.16384 0.23886
0.28542 0.16662 0.24238
0.39415 0.16957 0.24596
0.50601 0.17266 0.24954
0.61800 0.17580 0.25302
0.72710 0.17892 0.25632
0.83186 0.18195 0.25939
0.92599 0.18472 0.26209
0.09499 0.27286 0.24738
0.18874 0.27547 0.25036
0.29329 0.27841 0.25359
0.40242 0.28153 0.25687
0.51468 0.28479 0.26015
0.62707 0.28811 0.26333
0.73657 0.29140 0.26634
0.84170 0.29460 0.26913
0.93616 0.29751 0.27157
0.10380 0.38968 0.25862
0.19790 0.39244 0.26133
0.30284 0.39556 0.26427
0.41238 0.39886 0.26725
0.52506 0.40230 0.27021
0.63787 0.40581 0.27308
0.74778 0.40927 0.27578
0.85330 0.41264 0.27828
0.94812 0.41571 0.28045
0.11428 0.51035 0.26909
0.20875 0.51326 0.27153
0.31409 0.51655 0.27417
0.42405 0.52004 0.27683
0.53716 0.52367 0.27947
0.65040 0.52736 0.28202
0.76072 0.53101 0.28440
0.86665 0.53456 0.28660
0.96183 0.53778 0.28851
0.12622 0.63165 0.27848
0.22104 0.63472 0.28065
0.32679 0.63818 0.28299
0.43717 0.64185 0.28533
0.55071 0.64568 0.28765
0.66438 0.64956 0.28987
0.77512 0.65339 0.29194
0.88145 0.65711 0.29384
0.97699 0.66049 0.29547
0.13922 0.75030 0.28657
0.23440 0.75353 0.28848
0.34054 0.75717 0.29052
0.45132 0.76101 0.29256
0.56529 0.76502 0.29456
0.67937 0.76908 0.29647
0.79053 0.77309 0.29823
0.89725 0.77699 0.29984
0.99314 0.78052 0.30121
0.15299 0.86467 0.29336
0.24850 0.86804 0.29502
0.35502 0.87184 0.29678
0.46619 0.87586 0.29852
0.58056 0.88004 0.30022
0.69505 0.88428 0.30183
0.80660 0.88846 0.30330
0.91369 0.89252 0.30462
1.00000 0.89621 0.30574
0.16642 0.96780 0.29865
0.26224 0.97130 0.30008
0.36909 0.97525 0.30159
0.48062 0.97942 0.30307
0.59534 0.98377 0.30450
0.71019 0.98816 0.30583
0.82209 0.99250 0.30704
0.92953 0.99670 0.30811
1.00000 1.00000 0.30900
0.08305 0.06270 0.33209
0.17620 0.06504 0.33552
0.28008 0.06769 0.33926
0.38850 0.07051 0.34306
0.50004 0.07345 0.34688
0.61171 0.07646 0.35061
0.72051 0.07944 0.35414
0.82497 0.08234 0.35744
0.91883 0.08499 0.36033
0.08852 0.16235 0.34335
0.18197 0.16482 0.34655
0.28619 0.16762 0.35004
0.39496 0.17059 0.35358
0.50686 0.17369 0.35713
0.61889 0.17685 0.36058
0.72804 0.17999 0.36385
0.83284 0.18304 0.36690
0.92700 0.18582 0.36956
0.09581 0.27389 0.35500
0.18960 0.27650 0.35794
0.29419 0.27946 0.36115
0.40336 0.28260 0.36440
0.51566 0.28589 0.36765
0.62809 0.28922 0.37080
0.73763 0.29253 0.37377
0.84281 0.29574 0.37653
0.93731 0.29867 0.37895
0.10476 0.39077 0.36613
0.19890 0.39354 0.36881
0.30388 0.39667 0.37172
0.41346 0.39999 0.37467
0.52618 0.40345 0.37760
0.63903 0.40698 0.38044
0.74898 0.41046 0.38310
0.85455 0.41384 0.38558
0.94940 0.41693 0.38772
0.11539 0.51149 0.37650
0.20989 0.51442 0.37891
0.31527 0.51773 0.38152
0.42527 0.52123 0.38415
0.53843 0.52489 0.38676
0.65171 0.52860 0.38927
0.76207 0.53226 0.39162
0.86804 0.53582 0.39379
0.96326 0.53907 0.39567
0.12747 0.63285 0.38578
0.22233 0.63594 0.38792
0.32812 0.63942 0.39023
0.43853 0.64311 0.39254
0.55212 0.64695 0.39483
0.66583 0.65085 0.39702
0.77662 0.65470 0.39905
0.88299 0.65844 0.40092
0.97856 0.66184 0.40253
0.14061 0.75157 0.39376
0.23583 0.75481 0.39564
0.34200 0.75847 0.39765
0.45283 0.76233 0.39966
0.56683 0.76636 0.40163
0.68096 0.77044 0.40351
0.79216 0.77446 0.40524
0.89892 0.77838 0.40682
0.99485 0.78193 0.40816
0.15451 0.86599 0.40046
0.25006 0.86938 0.40208
0.35662 0.87320 0.40381
0.46783 0.87724 0.40553
0.58224 0.88144 0.40720
0.69677 0.88570 0.40877
0.80836 0.88990 0.41021
0.91550 0.89397 0.41150
1.00000 0.89767 0.41259
0.16806 0.96917 0.40566
0.26392 0.97270 0.40705
0.37081 0.97666 0.40853
0.48237 0.98085 0.40998
0.59714 0.98521 0.41138
0.71204 0.98963 0.41268
0.82398 0.99398 0.41386
0.93145 0.99820 0.41490
1.00000 1.00000 0.41576
0.08366 0.06365 0.44285
0.17684 0.06600 0.44625
0.28076 0.06867 0.44996
0.38923 0.07150 0.45373
0.50081 0.07447 0.45752
0.61252 0.07749 0.46121
0.72136 0.08049 0.46471
0.82586 0.08341 0.46798
0.91976 0.08607 0.47084
0.08925 0.16335 0.45402
0.18274 0.16583 0.45719
0.28699 0.16865 0.46065
0.39581 0.17164 0.46416
0.50775 0.17476 0.46768
0.61983 0.17794 0.47109
0.72902 0.18109 0.47433
0.83386 0.18416 0.47735
0.92806 0.18696 0.47998
0.09668 0.27494 0.46556
0.19050 0.27757 0.46848
0.29513 0.28055 0.47166
0.40435 0.28371 0.47487
0.51669 0.28701 0.47809
0.62916 0.29037 0.48121
0.73875 0.29369 0.48415
0.84396 0.29693 0.48688
0.93850 0.29987 0.48927
0.10577 0.39188 0.47659
0.19995 0.39467 0.47924
0.30497 0.39782 0.48212
0.41459 0.40116 0.48504
0.52735 0.40464 0.48794
0.64025 0.40818 0.49074
0.75024 0.41168 0.49338
0.85584 0.41509 0.49582
0.95073 0.41819 0.49794
0.11654 0.51267 0.48685
0.21108 0.51562 0.48923
0.31651 0.51895 0.49181
0.42655 0.52247 0.49441
0.53974 0.52614 0.49698
0.65307 0.52987 0.49946
0.76348 0.53355 0.50178
0.86948 0.53713 0.50392
0.96473 0.54039 0.50577
0.12877 0.63410 0.49602
0.22367 0.63720 0.49813
0.32949 0.64070 0.50041
0.43995 0.64441 0.50269
0.55358 0.64827 0.50494
0.66733 0.65219 0.50710
0.77817 0.65605 0.50911
0.88457 0.65981 0.51094
0.98019 0.66323 0.51252
0.14206 0.75288 0.50390
0.23731 0.75613 0.50575
0.34352 0.75981 0.50773
0.45439 0.76369 0.50971
0.56844 0.76774 0.51164
0.68261 0.77184 0.51349
0.79385 0.77588 0.51519
0.90065 0.77981 0.51673
0.99662 0.78338 0.51805
0.15609 0.86736 0.51048
0.25168 0.87077 0.51208
0.35827 0.87460 0.51378
0.46953 0.87866 0.51547
0.58398 0.88288 0.51710
0.69856 0.88716 0.51864
0.81019 0.89137 0.52005
0.91736 0.89547 0.52131
1.00000 0.89918 0.52238
0.16977 0.97060 0.51559
0.26565 0.97413 0.51696
0.37258 0.97812 0.51841
0.48420 0.98233 0.51983
0.59901 0.98671 0.52120
0.71394 0.99114 0.52247
0.82593 0.99551 0.52361
0.93344 0.99975 0.52462
1.00000 1.00000 0.52546
0.08428 0.06460 0.55360
0.17750 0.06697 0.55697
0.28145 0.06965 0.56065
0.38997 0.07250 0.56439
0.50159 0.07549 0.56815
0.61335 0.07853 0.57180
0.72223 0.08154 0.57527
0.82677 0.08449 0.57851
0.92070 0.08717 0.58135
0.08999 0.16435 0.56468
0.18352 0.16685 0.56782
0.28781 0.16968 0.57125
0.39667 0.17269 0.57473
0.50866 0.17583 0.57821
0.62078 0.17903 0.58160
0.73001 0.18220 0.58480
0.83489 0.18529 0.58779
0.92912 0.18810 0.59040
0.09756 0.27600 0.57612
0.19142 0.27865 0.57901
0.29609 0.28165 0.58215
0.40534 0.28483 0.58534
0.51773 0.28815 0.58852
0.63025 0.29152 0.59161
0.73988 0.29486 0.59452
0.84513 0.29811 0.59722
0.93970 0.30108 0.59958
0.10679 0.39301 0.58704
0.20101 0.39581 0.58966
0.30607 0.39898 0.59251
0.41573 0.40234 0.59540
0.52854 0.40584 0.59826
0.64148 0.40940 0.60103
0.75151 0.41292 0.60364
0.85715 0.41634 0.60605
0.95208 0.41946 0.60814
0.11771 0.51386 0.59718
0.21229 0.51682 0.59954
0.31775 0.52017 0.60209
0.42783 0.52371 0.60466
0.54107 0.52740 0.60720
0.65444 0.53115 0.60965
0.76489 0.53485 0.61194
0.87094 0.53845 0.61405
0.96623 0.54172 0.61587
0.13008 0.63535 0.60624
0.22502 0.63847 0.60833
0.33088 0.64199 0.61058
0.44139 0.64571 0.61283
0.55506 0.64959 0.61505
0.66886 0.65353 0.61717
0.77973 0.65742 0.61915
0.88618 0.66119 0.62095
0.98183 0.66462 0.62251
0.14351 0.75419 0.61402
0.23880 0.75747 0.61584
0.34506 0.76116 0.61779
0.45597 0.76506 0.61974
0.57006 0.76912 0.62164
0.68428 0.77324 0.62345
0.79556 0.77731 0.62512
0.90240 0.78125 0.62664
0.99840 0.78484 0.62792
0.15769 0.86874 0.62050
0.25331 0.87216 0.62207
0.35994 0.87601 0.62374
0.47124 0.88009 0.62540
0.58574 0.88433 0.62700
0.70036 0.88862 0.62851
0.81203 0.89286 0.62988
0.91925 0.89697 0.63112
1.00000 0.90070 0.63215
0.17148 0.97203 0.62552
0.26741 0.97558 0.62686
0.37438 0.97958 0.62828
0.48603 0.98381 0.62967
0.60089 0.98821 0.63100
0.71587 0.99266 0.63224
0.82789 0.99705 0.63335
0.93545 1.00000 0.63433
1.00000 1.00000 0.63514
0.08489 0.06553 0.66137
0.17815 0.06791 0.66471
0.28215 0.07061 0.66836
0.39070 0.07348 0.67208
0.50237 0.07649 0.67580
0.61416 0.07955 0.67942
0.72309 0.08258 0.68286
0.82767 0.08554 0.68607
0.92164 0.08823 0.68888
0.09073 0.16533 0.67236
0.18429 0.16785 0.67547
0.28862 0.17070 0.67887
0.39753 0.17372 0.68232
0.50956 0.17689 0.68577
0.62171 0.18010 0.68913
0.73099 0.18329 0.69230
0.83591 0.18639 0.69526
0.93018 0.18922 0.69784
0.09843 0.27704 0.68370
0.19232 0.27971 0.68656
0.29703 0.28272 0.68968
0.40633 0.28592 0.69283
0.51876 0.28926 0.69598
0.63132 0.29265 0.69904
0.74099 0.29601 0.70191
0.84628 0.29928 0.70459
0.94089 0.30225 0.70692
0.10780 0.39411 0.69451
0.20205 0.39693 0.69712
0.30715 0.40011 0.69994
0.41685 0.40349 0.70279
0.52971 0.40701 0.70562
0.64269 0.41059 0.70836
0.75276 0.41412 0.71093
0.85845 0.41757 0.71331
0.95341 0.42070 0.71538
0.11886 0.51503 0.70455
0.21347 0.51800 0.70689
0.31898 0.52136 0.70940
0.42910 0.52492 0.71194
0.54238 0.52863 0.71445
0.65579 0.53240 0.71687
0.76629 0.53612 0.71912
0.87237 0.53974 0.72120
0.96770 0.54302 0.72300
0.13138 0.63658 0.71351
0.22635 0.63971 0.71557
0.33225 0.64325 0.71778
0.44280 0.64699 0.72001
0.55651 0.65089 0.72219
0.67035 0.65484 0.72429
0.78126 0.65875 0.72623
0.88775 0.66254 0.72801
0.98344 0.66599 0.72953
0.14495 0.75548 0.72118
0.24027 0.75877 0.72297
0.34656 0.76248 0.72490
0.45752 0.76640 0.72681
0.57165 0.77048 0.72868
0.68591 0.77462 0.73046
0.79723 0.77870 0.73210
0.90411 0.78266 0.73358
1.00000 0.78626 0.73484
0.15925 0.87008 0.72756
0.25491 0.87352 0.72911
0.36158 0.87739 0.73075
0.47292 0.88148 0.73237
0.58746 0.88574 0.73394
0.70212 0.89005 0.73542
0.81384 0.89431 0.73676
0.92109 0.89844 0.73796
1.00000 0.90218 0.73897
0.17317 0.97342 0.73249
0.26913 0.97699 0.73381
0.37614 0.98101 0.73519
0.48783 0.98526 0.73655
0.60273 0.98967 0.73785
0.71775 0.99414 0.73906
0.82982 0.99855 0.74014
0.93741 1.00000 0.74109
1.00000 1.00000 0.74187
0.08550 0.06642 0.76472
0.17879 0.06882 0.76804
0.28282 0.07154 0.77166
0.39142 0.07443 0.77534
0.50313 0.07745 0.77904
0.61496 0.08053 0.78263
0.72393 0.08358 0.78604
0.82854 0.08655 0.78922
0.92255 0.08927 0.79200
0.09145 0.16628 0.77562
0.18504 0.16881 0.77871
0.28941 0.17168 0.78208
0.39836 0.17472 0.78550
0.51043 0.17790 0.78892
0.62263 0.18114 0.79225
0.73194 0.18434 0.79539
0.83690 0.18746 0.79832
0.93120 0.19030 0.80088
0.09928 0.27805 0.78687
0.19321 0.28073 0.78971
0.29795 0.28376 0.79279
0.40729 0.28697 0.79592
0.51976 0.29033 0.79904
0.63236 0.29374 0.80206
0.74207 0.29711 0.80491
0.84740 0.30040 0.80756
0.94204 0.30339 0.80986
0.10878 0.39517 0.79758
0.20306 0.39801 0.80016
0.30820 0.40121 0.80295
0.41795 0.40460 0.80577
0.53084 0.40814 0.80858
0.64386 0.41173 0.81128
0.75397 0.41529 0.81383
0.85970 0.41874 0.81618
0.95469 0.42189 0.81822
0.11998 0.51615 0.80752
0.21462 0.51914 0.80983
0.32017 0.52252 0.81232
0.43033 0.52609 0.81482
0.54365 0.52982 0.81730
0.65710 0.53360 0.81969
0.76764 0.53734 0.82192
0.87376 0.54097 0.82397
0.96912 0.54428 0.82574
0.13263 0.63776 0.81637
0.22763 0.64091 0.81841
0.33358 0.64446 0.82059
0.44416 0.64822 0.82279
0.55791 0.65214 0.82494
0.67180 0.65611 0.82701
0.78275 0.66003 0.82892
0.88928 0.66384 0.83067
0.98500 0.66730 0.83217
0.14633 0.75672 0.82394
0.24169 0.76002 0.82571
0.34802 0.76375 0.82761
0.45901 0.76768 0.82949
0.57319 0.77178 0.83133
0.68749 0.77594 0.83308
0.79885 0.78004 0.83469
0.90577 0.78402 0.83615
1.00000 0.78764 0.83738
0.16076 0.87138 0.83023
0.25646 0.87483 0.83175
0.36317 0.87872 0.83336
0.47455 0.88282 0.83496
0.58913 0.88710 0.83650
0.70383 0.89143 0.83794
0.81558 0.89570 0.83926
0.92288 0.89985 0.84043
1.00000 0.90361 0.84141
0.17480 0.97477 0.83507
0.27079 0.97835 0.83636
0.37784 0.98239 0.83772
0.48957 0.98665 0.83905
0.60451 0.99108 0.84032
0.71957 0.99557 0.84150
0.83168 1.00000 0.84255
0.93931 1.00000 0.84347
1.00000 1.00000 0.84423
0.08605 0.06723 0.85748
0.17937 0.06965 0.86078
0.28344 0.07238 0.86437
0.39207 0.07528 0.86803
0.50382 0.07832 0.87170
0.61569 0.08142 0.87526
0.72469 0.08448 0.87864
0.82934 0.08747 0.88180
0.92338 0.09020 0.88456
0.09211 0.16713 0.86831
0.18573 0.16968 0.87138
0.29014 0.17256 0.87472
0.39912 0.17562 0.87811
0.51122 0.17881 0.88151
0.62346 0.18207 0.88480
0.73281 0.18529 0.88792
0.83780 0.18842 0.89082
0.93213 0.19128 0.89336
0.10005 0.27895 0.87947
0.19401 0.28165 0.88228
0.29879 0.28469 0.88534
0.40816 0.28792 0.88844
0.52067 0.29129 0.89154
0.63331 0.29472 0.89453
0.74305 0.29811 0.89735
0.84841 0.30141 0.89998
0.94309 0.30442 0.90226
0.10967 0.39613 0.89009
0.20399 0.39898 0.89265
0.30916 0.40219 0.89541
0.41894 0.40560 0.89821
0.53187 0.40916 0.90098
0.64492 0.41277 0.90367
0.75507 0.41634 0.90618
0.86083 0.41981 0.90851
0.95586 0.42297 0.91053
0.12099 0.51716 0.89994
0.21567 0.52016 0.90222
0.32124 0.52356 0.90469
0.43144 0.52715 0.90717
0.54480 0.53089 0.90962
0.65829 0.53469 0.91198
0.76886 0.53844 0.91418
0.87502 0.54209 0.91621
0.97041 0.54541 0.91795
0.13377 0.63882 0.90870
0.22880 0.64199 0.91071
0.33478 0.64555 0.91287
0.44540 0.64933 0.91504
0.55919 0.65326 0.91717
0.67311 0.65725 0.91920
0.78409 0.66119 0.92109
0.89066 0.66501 0.92281
0.98641 0.66849 0.92429
0.14759 0.75784 0.91618
0.24297 0.76115 0.91793
0.34934 0.76489 0.91980
0.46037 0.76884 0.92165
0.57458 0.77296 0.92347
0.68892 0.77713 0.92519
0.80032 0.78125 0.92677
0.90727 0.78524 0.92820
1.00000 0.78887 0.92941
0.16213 0.87254 0.92238
0.25786 0.87601 0.92388
0.36460 0.87991 0.92547
0.47602 0.88404 0.92703
0.59063 0.88833 0.92855
0.70537 0.89268 0.92996
0.81716 0.89696 0.93125
0.92449 0.90112 0.93240
1.00000 0.90490 0.93336
0.17627 0.97598 0.92715
0.27229 0.97958 0.92842
0.37938 0.98363 0.92975
0.49115 0.98791 0.93105
0.60612 0.99236 0.93230
0.72122 0.99686 0.93344
0.83336 1.00000 0.93447
0.94103 1.00000 0.93536
1.00000 1.00000 0.93610
