kmake/parts/lut/warm-memory.cube
TITLE "K-Maker warm-memory"
LUT_3D_SIZE 33
DOMAIN_MIN 0 0 0
DOMAIN_MAX 1 1 1
0.08147 0.06015 0.02806
0.10228 0.06066 0.02885
0.12547 0.06123 0.02973
0.14966 0.06183 0.03063
0.17451 0.06244 0.03156
0.19989 0.06308 0.03251
0.22568 0.06372 0.03346
0.25182 0.06438 0.03442
0.27828 0.06505 0.03538
0.30501 0.06572 0.03636
0.33198 0.06641 0.03733
0.35918 0.06711 0.03830
0.38659 0.06781 0.03928
0.41419 0.06852 0.04026
0.44196 0.06924 0.04124
0.46991 0.06997 0.04221
0.49801 0.07071 0.04319
0.52612 0.07144 0.04416
0.55409 0.07218 0.04512
0.58190 0.07292 0.04607
0.60956 0.07366 0.04700
0.63703 0.07439 0.04793
0.66432 0.07512 0.04884
0.69139 0.07586 0.04973
0.71824 0.07658 0.05062
0.74482 0.07731 0.05149
0.77111 0.07802 0.05235
0.79705 0.07874 0.05318
0.82259 0.07944 0.05400
0.84762 0.08013 0.05480
0.87198 0.08081 0.05558
0.89536 0.08146 0.05631
0.91635 0.08204 0.05697
0.08253 0.08238 0.03070
0.10335 0.08289 0.03148
0.12656 0.08347 0.03234
0.15077 0.08407 0.03324
0.17564 0.08470 0.03415
0.20103 0.08534 0.03508
0.22684 0.08599 0.03602
0.25301 0.08666 0.03697
0.27948 0.08733 0.03792
0.30623 0.08802 0.03888
0.33323 0.08871 0.03983
0.36044 0.08942 0.04080
0.38787 0.09013 0.04176
0.41549 0.09085 0.04272
0.44329 0.09158 0.04368
0.47125 0.09232 0.04464
0.49937 0.09306 0.04560
0.52750 0.09381 0.04656
0.55549 0.09456 0.04750
0.58333 0.09530 0.04844
0.61100 0.09605 0.04936
0.63850 0.09679 0.05027
0.66580 0.09753 0.05116
0.69290 0.09827 0.05205
0.71976 0.09901 0.05292
0.74636 0.09974 0.05377
0.77267 0.10047 0.05461
0.79863 0.10119 0.05544
0.82418 0.10190 0.05624
0.84923 0.10260 0.05703
0.87362 0.10328 0.05779
0.89701 0.10394 0.05851
0.91801 0.10453 0.05916
0.08377 0.10716 0.03360
0.10461 0.10769 0.03437
0.12784 0.10827 0.03522
0.15206 0.10888 0.03610
0.17696 0.10952 0.03700
0.20237 0.11017 0.03791
0.22820 0.11083 0.03883
0.25439 0.11150 0.03976
0.28088 0.11219 0.04070
0.30765 0.11288 0.04164
0.33467 0.11359 0.04258
0.36191 0.11430 0.04353
0.38936 0.11503 0.04447
0.41700 0.11576 0.04542
0.44482 0.11649 0.04636
0.47281 0.11724 0.04731
0.50095 0.11800 0.04825
0.52910 0.11875 0.04919
0.55711 0.11951 0.05012
0.58497 0.12027 0.05103
0.61267 0.12102 0.05193
0.64019 0.12178 0.05283
0.66751 0.12253 0.05371
0.69463 0.12328 0.05457
0.72152 0.12402 0.05543
0.74814 0.12476 0.05627
0.77447 0.12550 0.05709
0.80045 0.12623 0.05790
0.82602 0.12695 0.05869
0.85109 0.12766 0.05946
0.87550 0.12835 0.06021
0.89891 0.12901 0.06092
0.91993 0.12962 0.06155
0.08513 0.13303 0.03657
0.10599 0.13357 0.03733
0.12924 0.13416 0.03816
0.15348 0.13478 0.03903
0.17840 0.13542 0.03991
0.20383 0.13608 0.04081
0.22968 0.13675 0.04171
0.25589 0.13744 0.04263
0.28241 0.13813 0.04355
0.30920 0.13884 0.04447
0.33624 0.13955 0.04539
0.36351 0.14028 0.04632
0.39098 0.14101 0.04725
0.41864 0.14175 0.04818
0.44648 0.14250 0.04911
0.47449 0.14326 0.05003
0.50266 0.14402 0.05096
0.53084 0.14479 0.05188
0.55887 0.14556 0.05279
0.58676 0.14632 0.05369
0.61448 0.14709 0.05457
0.64202 0.14785 0.05545
0.66937 0.14861 0.05631
0.69651 0.14937 0.05716
0.72341 0.15013 0.05800
0.75006 0.15088 0.05882
0.77641 0.15162 0.05963
0.80241 0.15236 0.06042
0.82801 0.15309 0.06120
0.85310 0.15381 0.06195
0.87753 0.15451 0.06268
0.90096 0.15519 0.06338
0.92199 0.15580 0.06400
0.08660 0.15965 0.03957
0.10748 0.16019 0.04031
0.13075 0.16079 0.04113
0.15501 0.16142 0.04198
0.17995 0.16208 0.04285
0.20541 0.16274 0.04373
0.23128 0.16343 0.04462
0.25751 0.16412 0.04552
0.28405 0.16482 0.04642
0.31087 0.16554 0.04732
0.33793 0.16627 0.04823
0.36522 0.16700 0.04914
0.39271 0.16774 0.05005
0.42040 0.16849 0.05096
0.44827 0.16925 0.05187
0.47630 0.17002 0.05278
0.50449 0.17080 0.05369
0.53270 0.17157 0.05459
0.56075 0.17235 0.05548
0.58866 0.17313 0.05636
0.61640 0.17391 0.05723
0.64397 0.17468 0.05809
0.67134 0.17545 0.05893
0.69851 0.17622 0.05976
0.72544 0.17699 0.06058
0.75210 0.17775 0.06139
0.77848 0.17850 0.06218
0.80450 0.17925 0.06296
0.83012 0.17999 0.06372
0.85523 0.18072 0.06445
0.87968 0.18143 0.06517
0.90313 0.18211 0.06585
0.92419 0.18273 0.06646
0.08818 0.18684 0.04258
0.10907 0.18739 0.04330
0.13236 0.18800 0.04411
0.15665 0.18864 0.04494
0.18161 0.18930 0.04579
0.20709 0.18998 0.04666
0.23298 0.19067 0.04753
0.25924 0.19138 0.04841
0.28580 0.19209 0.04929
0.31264 0.19282 0.05018
0.33973 0.19355 0.05107
0.36704 0.19430 0.05196
0.39456 0.19505 0.05285
0.42227 0.19581 0.05375
0.45016 0.19659 0.05464
0.47822 0.19736 0.05553
0.50644 0.19815 0.05642
0.53466 0.19894 0.05730
0.56275 0.19973 0.05817
0.59068 0.20052 0.05903
0.61845 0.20130 0.05988
0.64604 0.20209 0.06072
0.67343 0.20287 0.06155
0.70062 0.20365 0.06237
0.72757 0.20442 0.06317
0.75427 0.20520 0.06396
0.78066 0.20596 0.06473
0.80671 0.20672 0.06549
0.83235 0.20747 0.06623
0.85749 0.20821 0.06695
0.88195 0.20893 0.06765
0.90543 0.20962 0.06831
0.92650 0.21024 0.06891
0.08985 0.21451 0.04557
0.11077 0.21507 0.04629
0.13408 0.21569 0.04707
0.15839 0.21634 0.04789
0.18337 0.21701 0.04873
0.20887 0.21770 0.04957
0.23479 0.21840 0.05043
0.26107 0.21911 0.05129
0.28766 0.21984 0.05216
0.31452 0.22057 0.05303
0.34163 0.22132 0.05390
0.36897 0.22208 0.05477
0.39651 0.22284 0.05564
0.42425 0.22361 0.05652
0.45217 0.22439 0.05739
0.48025 0.22518 0.05826
0.50849 0.22598 0.05913
0.53674 0.22678 0.06000
0.56485 0.22758 0.06085
0.59281 0.22838 0.06169
0.62060 0.22918 0.06252
0.64821 0.22997 0.06334
0.67564 0.23077 0.06415
0.70285 0.23156 0.06495
0.72983 0.23234 0.06573
0.75654 0.23312 0.06650
0.78296 0.23390 0.06726
0.80903 0.23467 0.06800
0.83470 0.23543 0.06873
0.85985 0.23617 0.06943
0.88434 0.23690 0.07011
0.90783 0.23761 0.07076
0.92893 0.23824 0.07134
0.09163 0.24259 0.04855
0.11257 0.24315 0.04925
0.13590 0.24378 0.05002
0.16023 0.24444 0.05082
0.18524 0.24512 0.05164
0.21076 0.24582 0.05247
0.23670 0.24653 0.05331
0.26301 0.24726 0.05415
0.28962 0.24799 0.05500
0.31651 0.24874 0.05585
0.34364 0.24950 0.05670
0.37100 0.25026 0.05756
0.39857 0.25104 0.05841
0.42633 0.25182 0.05927
0.45428 0.25261 0.06012
0.48238 0.25341 0.06097
0.51065 0.25422 0.06182
0.53893 0.25503 0.06267
0.56706 0.25584 0.06350
0.59504 0.25665 0.06433
0.62286 0.25746 0.06514
0.65050 0.25827 0.06594
0.67795 0.25907 0.06673
0.70518 0.25987 0.06751
0.73219 0.26067 0.06828
0.75893 0.26146 0.06903
0.78537 0.26225 0.06977
0.81146 0.26303 0.07049
0.83715 0.26380 0.07120
0.86233 0.26455 0.07189
0.88684 0.26529 0.07255
0.91036 0.26600 0.07318
0.93147 0.26664 0.07375
0.09352 0.27102 0.05150
0.11447 0.27159 0.05218
0.13782 0.27223 0.05294
0.16218 0.27290 0.05372
0.18721 0.27359 0.05452
0.21275 0.27430 0.05534
0.23872 0.27502 0.05616
0.26505 0.27576 0.05698
0.29168 0.27651 0.05781
0.31860 0.27726 0.05864
0.34576 0.27803 0.05948
0.37314 0.27881 0.06031
0.40074 0.27960 0.06115
0.42852 0.28039 0.06199
0.45649 0.28119 0.06282
0.48463 0.28201 0.06365
0.51292 0.28283 0.06449
0.54122 0.28365 0.06531
0.56938 0.28447 0.06613
0.59739 0.28529 0.06693
0.62523 0.28611 0.06773
0.65290 0.28693 0.06851
0.68037 0.28774 0.06928
0.70763 0.28855 0.07004
0.73466 0.28936 0.07079
0.76142 0.29016 0.07152
0.78789 0.29096 0.07224
0.81401 0.29175 0.07295
0.83972 0.29253 0.07364
0.86492 0.29330 0.07431
0.88945 0.29405 0.07495
0.91299 0.29477 0.07557
0.93412 0.29542 0.07612
0.09550 0.29978 0.05442
0.11648 0.30036 0.05509
0.13985 0.30101 0.05583
0.16423 0.30169 0.05659
0.18928 0.30239 0.05738
0.21485 0.30311 0.05817
0.24084 0.30384 0.05897
0.26719 0.30459 0.05978
0.29385 0.30534 0.06059
0.32079 0.30611 0.06140
0.34797 0.30689 0.06222
0.37539 0.30768 0.06304
0.40301 0.30848 0.06385
0.43082 0.30928 0.06467
0.45881 0.31010 0.06548
0.48697 0.31092 0.06630
0.51529 0.31175 0.06711
0.54362 0.31259 0.06792
0.57181 0.31342 0.06871
0.59984 0.31425 0.06950
0.62771 0.31508 0.07027
0.65540 0.31591 0.07104
0.68290 0.31674 0.07179
0.71018 0.31756 0.07253
0.73723 0.31838 0.07326
0.76402 0.31919 0.07397
0.79051 0.32000 0.07468
0.81666 0.32080 0.07536
0.84239 0.32159 0.07604
0.86762 0.32237 0.07669
0.89217 0.32313 0.07732
0.91573 0.32386 0.07792
0.93688 0.32451 0.07846
0.09759 0.32883 0.05730
0.11859 0.32942 0.05795
0.14198 0.33008 0.05867
0.16638 0.33077 0.05942
0.19145 0.33148 0.06019
0.21705 0.33221 0.06097
0.24306 0.33295 0.06175
0.26944 0.33371 0.06254
0.29612 0.33448 0.06333
0.32309 0.33526 0.06413
0.35030 0.33605 0.06492
0.37774 0.33685 0.06572
0.40538 0.33766 0.06652
0.43322 0.33847 0.06731
0.46124 0.33930 0.06811
0.48943 0.34013 0.06890
0.51777 0.34098 0.06970
0.54613 0.34182 0.07048
0.57434 0.34267 0.07126
0.60240 0.34351 0.07203
0.63029 0.34435 0.07278
0.65801 0.34519 0.07353
0.68553 0.34603 0.07426
0.71284 0.34686 0.07498
0.73992 0.34769 0.07569
0.76673 0.34852 0.07639
0.79325 0.34934 0.07707
0.81942 0.35015 0.07774
0.84517 0.35095 0.07839
0.87042 0.35173 0.07903
0.89500 0.35250 0.07964
0.91858 0.35324 0.08023
0.93975 0.35391 0.08075
0.09978 0.35815 0.06013
0.12080 0.35875 0.06077
0.14421 0.35942 0.06148
0.16863 0.36012 0.06221
0.19373 0.36084 0.06296
0.21935 0.36158 0.06372
0.24539 0.36234 0.06448
0.27179 0.36310 0.06525
0.29850 0.36388 0.06603
0.32549 0.36467 0.06680
0.35273 0.36547 0.06758
0.38019 0.36629 0.06836
0.40786 0.36711 0.06914
0.43573 0.36793 0.06992
0.46377 0.36877 0.07069
0.49198 0.36962 0.07147
0.52036 0.37047 0.07224
0.54874 0.37133 0.07301
0.57698 0.37219 0.07376
0.60506 0.37304 0.07451
0.63298 0.37390 0.07524
0.66072 0.37475 0.07597
0.68827 0.37559 0.07668
0.71561 0.37644 0.07738
0.74271 0.37728 0.07808
0.76955 0.37812 0.07875
0.79609 0.37894 0.07942
0.82228 0.37977 0.08007
0.84806 0.38058 0.08071
0.87334 0.38137 0.08132
0.89794 0.38215 0.08192
0.92154 0.38290 0.08249
0.94273 0.38358 0.08300
0.10208 0.38773 0.06293
0.12311 0.38834 0.06355
0.14655 0.38902 0.06424
0.17099 0.38973 0.06496
0.19612 0.39046 0.06569
0.22176 0.39121 0.06643
0.24782 0.39197 0.06717
0.27425 0.39275 0.06793
0.30099 0.39354 0.06868
0.32800 0.39434 0.06944
0.35526 0.39516 0.07020
0.38275 0.39598 0.07095
0.41045 0.39681 0.07171
0.43834 0.39765 0.07247
0.46641 0.39850 0.07323
0.49465 0.39936 0.07398
0.52305 0.40022 0.07473
0.55146 0.40109 0.07548
0.57972 0.40196 0.07622
0.60783 0.40283 0.07694
0.63578 0.40369 0.07766
0.66355 0.40455 0.07836
0.69112 0.40541 0.07906
0.71849 0.40627 0.07974
0.74561 0.40712 0.08041
0.77248 0.40797 0.08107
0.79904 0.40881 0.08172
0.82526 0.40964 0.08235
0.85107 0.41046 0.08297
0.87636 0.41127 0.08357
0.90099 0.41206 0.08415
0.92461 0.41282 0.08470
0.94582 0.41350 0.08519
0.10448 0.41754 0.06567
0.12553 0.41816 0.06628
0.14899 0.41885 0.06695
0.17346 0.41957 0.06765
0.19860 0.42031 0.06836
0.22427 0.42107 0.06909
0.25036 0.42185 0.06981
0.27681 0.42264 0.07055
0.30357 0.42344 0.07128
0.33061 0.42425 0.07202
0.35790 0.42507 0.07276
0.38541 0.42591 0.07350
0.41314 0.42675 0.07424
0.44106 0.42760 0.07498
0.46915 0.42846 0.07571
0.49742 0.42933 0.07645
0.52585 0.43021 0.07718
0.55428 0.43109 0.07791
0.58257 0.43197 0.07862
0.61071 0.43285 0.07933
0.63869 0.43373 0.08002
0.66648 0.43460 0.08071
0.69408 0.43547 0.08138
0.72147 0.43634 0.08205
0.74862 0.43720 0.08270
0.77551 0.43806 0.08334
0.80210 0.43891 0.08397
0.82834 0.43975 0.08458
0.85417 0.44059 0.08518
0.87949 0.44140 0.08576
0.90414 0.44220 0.08633
0.92779 0.44297 0.08686
0.94902 0.44366 0.08734
0.10698 0.44758 0.06837
0.12805 0.44821 0.06896
0.15154 0.44890 0.06962
0.17603 0.44963 0.07030
0.20120 0.45039 0.07099
0.22689 0.45116 0.07169
0.25300 0.45194 0.07240
0.27948 0.45274 0.07312
0.30627 0.45356 0.07384
0.33333 0.45438 0.07455
0.36065 0.45522 0.07527
0.38819 0.45606 0.07599
0.41594 0.45692 0.07671
0.44388 0.45778 0.07743
0.47201 0.45865 0.07815
0.50030 0.45953 0.07886
0.52875 0.46042 0.07957
0.55722 0.46132 0.08028
0.58553 0.46221 0.08097
0.61370 0.46310 0.08166
0.64170 0.46399 0.08234
0.66952 0.46487 0.08300
0.69715 0.46575 0.08366
0.72456 0.46663 0.08430
0.75174 0.46751 0.08493
0.77865 0.46838 0.08556
0.80527 0.46924 0.08616
0.83154 0.47009 0.08676
0.85739 0.47093 0.08734
0.88274 0.47176 0.08790
0.90741 0.47257 0.08845
0.93108 0.47335 0.08897
0.95233 0.47405 0.08943
0.10959 0.47783 0.07101
0.13068 0.47846 0.07159
0.15419 0.47917 0.07223
0.17870 0.47991 0.07289
0.20390 0.48067 0.07357
0.22961 0.48146 0.07425
0.25575 0.48225 0.07494
0.28225 0.48307 0.07564
0.30907 0.48389 0.07633
0.33616 0.48473 0.07703
0.36350 0.48557 0.07773
0.39107 0.48643 0.07843
0.41884 0.48730 0.07913
0.44681 0.48817 0.07983
0.47497 0.48906 0.08052
0.50329 0.48995 0.08122
0.53177 0.49085 0.08191
0.56026 0.49175 0.08260
0.58860 0.49266 0.08327
0.61679 0.49356 0.08394
0.64482 0.49446 0.08459
0.67267 0.49536 0.08524
0.70032 0.49625 0.08587
0.72776 0.49714 0.08650
0.75497 0.49803 0.08711
0.78191 0.49891 0.08771
0.80855 0.49978 0.08830
0.83484 0.50064 0.08888
0.86072 0.50150 0.08944
0.88609 0.50234 0.08999
0.91078 0.50316 0.09052
0.93447 0.50395 0.09102
0.95574 0.50466 0.09146
0.11230 0.50828 0.07360
0.13342 0.50892 0.07416
0.15694 0.50964 0.07478
0.18148 0.51039 0.07543
0.20670 0.51117 0.07608
0.23244 0.51196 0.07675
0.25861 0.51277 0.07742
0.28513 0.51359 0.07810
0.31197 0.51443 0.07878
0.33909 0.51527 0.07946
0.36646 0.51613 0.08014
0.39405 0.51700 0.08082
0.42186 0.51788 0.08149
0.44985 0.51876 0.08217
0.47803 0.51966 0.08285
0.50638 0.52057 0.08352
0.53489 0.52148 0.08419
0.56341 0.52240 0.08486
0.59178 0.52331 0.08551
0.62000 0.52422 0.08616
0.64805 0.52514 0.08679
0.67592 0.52605 0.08742
0.70361 0.52695 0.08803
0.73107 0.52785 0.08864
0.75830 0.52875 0.08923
0.78527 0.52964 0.08982
0.81193 0.53053 0.09039
0.83825 0.53140 0.09094
0.86416 0.53227 0.09149
0.88955 0.53312 0.09202
0.91427 0.53395 0.09253
0.93798 0.53474 0.09301
0.95927 0.53546 0.09344
0.11511 0.53877 0.07611
0.13624 0.53942 0.07666
0.15979 0.54015 0.07727
0.18436 0.54091 0.07789
0.20960 0.54170 0.07853
0.23537 0.54250 0.07918
0.26156 0.54332 0.07983
0.28811 0.54415 0.08049
0.31497 0.54500 0.08115
0.34212 0.54586 0.08181
0.36951 0.54673 0.08247
0.39713 0.54761 0.08313
0.42496 0.54850 0.08379
0.45298 0.54940 0.08445
0.48119 0.55031 0.08510
0.50957 0.55122 0.08575
0.53810 0.55215 0.08640
0.56665 0.55308 0.08705
0.59505 0.55400 0.08768
0.62329 0.55493 0.08831
0.65137 0.55585 0.08892
0.67927 0.55677 0.08953
0.70698 0.55769 0.09013
0.73447 0.55860 0.09071
0.76173 0.55951 0.09129
0.78872 0.56042 0.09185
0.81541 0.56131 0.09240
0.84176 0.56220 0.09294
0.86769 0.56307 0.09346
0.89310 0.56393 0.09397
0.91785 0.56477 0.09446
0.94158 0.56558 0.09493
0.96289 0.56631 0.09535
0.11799 0.56914 0.07855
0.13915 0.56980 0.07908
0.16272 0.57054 0.07967
0.18731 0.57131 0.08028
0.21257 0.57210 0.08090
0.23836 0.57292 0.08153
0.26458 0.57375 0.08217
0.29116 0.57460 0.08280
0.31805 0.57545 0.08344
0.34522 0.57632 0.08408
0.37264 0.57720 0.08472
0.40028 0.57810 0.08536
0.42814 0.57900 0.08600
0.45619 0.57991 0.08664
0.48442 0.58083 0.08727
0.51283 0.58176 0.08791
0.54139 0.58269 0.08854
0.56996 0.58363 0.08916
0.59839 0.58457 0.08978
0.62666 0.58551 0.09038
0.65477 0.58645 0.09098
0.68270 0.58738 0.09156
0.71043 0.58831 0.09214
0.73795 0.58923 0.09270
0.76523 0.59015 0.09326
0.79225 0.59107 0.09380
0.81897 0.59197 0.09433
0.84534 0.59287 0.09485
0.87129 0.59376 0.09536
0.89673 0.59463 0.09585
0.92150 0.59548 0.09633
0.94525 0.59630 0.09678
0.96659 0.59703 0.09718
0.12095 0.59938 0.08090
0.14212 0.60004 0.08142
0.16572 0.60079 0.08199
0.19033 0.60157 0.08259
0.21562 0.60238 0.08319
0.24144 0.60321 0.08380
0.26768 0.60405 0.08441
0.29428 0.60490 0.08503
0.32120 0.60577 0.08565
0.34839 0.60665 0.08627
0.37583 0.60755 0.08690
0.40351 0.60845 0.08752
0.43139 0.60936 0.08813
0.45947 0.61028 0.08875
0.48773 0.61122 0.08937
0.51616 0.61216 0.08998
0.54475 0.61311 0.09059
0.57335 0.61406 0.09119
0.60180 0.61501 0.09179
0.63010 0.61596 0.09237
0.65824 0.61690 0.09295
0.68619 0.61785 0.09351
0.71395 0.61879 0.09407
0.74149 0.61973 0.09462
0.76880 0.62066 0.09515
0.79585 0.62158 0.09568
0.82259 0.62250 0.09619
0.84898 0.62341 0.09669
0.87496 0.62430 0.09718
0.90043 0.62519 0.09765
0.92522 0.62605 0.09811
0.94900 0.62687 0.09854
0.97035 0.62762 0.09893
0.12398 0.62946 0.08318
0.14517 0.63014 0.08368
0.16879 0.63090 0.08423
0.19342 0.63169 0.08481
0.21874 0.63251 0.08539
0.24458 0.63334 0.08599
0.27084 0.63420 0.08658
0.29747 0.63506 0.08718
0.32441 0.63594 0.08778
0.35163 0.63684 0.08839
0.37910 0.63774 0.08899
0.40680 0.63865 0.08959
0.43471 0.63958 0.09019
0.46282 0.64051 0.09079
0.49110 0.64146 0.09138
0.51956 0.64241 0.09197
0.54818 0.64337 0.09256
0.57680 0.64433 0.09315
0.60528 0.64530 0.09372
0.63361 0.64626 0.09429
0.66177 0.64722 0.09484
0.68975 0.64817 0.09539
0.71754 0.64912 0.09592
0.74511 0.65007 0.09645
0.77244 0.65101 0.09697
0.79951 0.65195 0.09747
0.82628 0.65288 0.09797
0.85270 0.65380 0.09845
0.87870 0.65470 0.09892
0.90419 0.65560 0.09937
0.92900 0.65647 0.09981
0.95280 0.65730 0.10023
0.97418 0.65806 0.10060
0.12707 0.65939 0.08537
0.14829 0.66008 0.08586
0.17193 0.66084 0.08639
0.19658 0.66165 0.08695
0.22192 0.66247 0.08752
0.24779 0.66332 0.08809
0.27408 0.66418 0.08867
0.30073 0.66506 0.08925
0.32770 0.66595 0.08984
0.35494 0.66686 0.09042
0.38244 0.66777 0.09100
0.41017 0.66870 0.09158
0.43810 0.66963 0.09216
0.46623 0.67058 0.09274
0.49454 0.67153 0.09331
0.52303 0.67250 0.09389
0.55167 0.67347 0.09446
0.58032 0.67445 0.09502
0.60883 0.67542 0.09557
0.63718 0.67639 0.09612
0.66537 0.67736 0.09665
0.69338 0.67833 0.09718
0.72119 0.67929 0.09770
0.74879 0.68025 0.09821
0.77615 0.68120 0.09870
0.80324 0.68215 0.09919
0.83003 0.68309 0.09966
0.85647 0.68402 0.10013
0.88250 0.68494 0.10058
0.90801 0.68584 0.10102
0.93285 0.68672 0.10144
0.95668 0.68757 0.10184
0.97807 0.68833 0.10220
0.13023 0.68914 0.08748
0.15147 0.68983 0.08795
0.17513 0.69061 0.08847
0.19981 0.69142 0.08901
0.22517 0.69226 0.08956
0.25106 0.69312 0.09012
0.27738 0.69399 0.09068
0.30405 0.69488 0.09124
0.33104 0.69578 0.09181
0.35832 0.69670 0.09237
0.38584 0.69762 0.09293
0.41359 0.69856 0.09349
0.44155 0.69951 0.09405
0.46971 0.70046 0.09461
0.49805 0.70143 0.09517
0.52656 0.70241 0.09572
0.55523 0.70339 0.09627
0.58391 0.70438 0.09681
0.61244 0.70536 0.09735
0.64082 0.70635 0.09787
0.66903 0.70733 0.09839
0.69706 0.70831 0.09890
0.72490 0.70928 0.09939
0.75252 0.71025 0.09988
0.77991 0.71122 0.10036
0.80703 0.71217 0.10083
0.83384 0.71312 0.10129
0.86031 0.71407 0.10173
0.88636 0.71499 0.10217
0.91190 0.71591 0.10259
0.93676 0.71680 0.10299
0.96061 0.71766 0.10337
0.98202 0.71843 0.10371
0.13346 0.71869 0.08951
0.15471 0.71939 0.08997
0.17839 0.72018 0.09047
0.20309 0.72100 0.09099
0.22848 0.72185 0.09153
0.25439 0.72271 0.09207
0.28073 0.72360 0.09261
0.30743 0.72450 0.09315
0.33445 0.72541 0.09370
0.36175 0.72634 0.09424
0.38929 0.72727 0.09479
0.41707 0.72822 0.09533
0.44506 0.72918 0.09587
0.47324 0.73015 0.09641
0.50161 0.73113 0.09694
0.53014 0.73211 0.09748
0.55884 0.73311 0.09801
0.58754 0.73411 0.09853
0.61610 0.73511 0.09905
0.64451 0.73610 0.09955
0.67275 0.73709 0.10005
0.70081 0.73808 0.10054
0.72867 0.73907 0.10101
0.75632 0.74005 0.10148
0.78373 0.74103 0.10194
0.81087 0.74199 0.10239
0.83771 0.74296 0.10283
0.86420 0.74391 0.10326
0.89028 0.74485 0.10367
0.91584 0.74577 0.10408
0.94072 0.74667 0.10446
0.96459 0.74754 0.10483
0.98602 0.74832 0.10516
0.13673 0.74801 0.09146
0.15801 0.74872 0.09190
0.18171 0.74952 0.09239
0.20644 0.75035 0.09290
0.23185 0.75121 0.09341
0.25778 0.75209 0.09393
0.28414 0.75298 0.09445
0.31087 0.75389 0.09498
0.33791 0.75481 0.09551
0.36523 0.75575 0.09603
0.39280 0.75670 0.09656
0.42061 0.75766 0.09708
0.44862 0.75863 0.09760
0.47683 0.75961 0.09812
0.50522 0.76060 0.09864
0.53378 0.76159 0.09915
0.56250 0.76260 0.09966
0.59123 0.76361 0.10017
0.61982 0.76462 0.10066
0.64825 0.76563 0.10115
0.67652 0.76663 0.10163
0.70460 0.76763 0.10210
0.73249 0.76863 0.10256
0.76016 0.76962 0.10301
0.78760 0.77061 0.10345
0.81476 0.77159 0.10388
0.84163 0.77256 0.10430
0.86815 0.77352 0.10471
0.89424 0.77447 0.10511
0.91983 0.77540 0.10549
0.94473 0.77631 0.10586
0.96862 0.77719 0.10621
0.99007 0.77798 0.10652
0.14006 0.77708 0.09332
0.16135 0.77780 0.09375
0.18508 0.77860 0.09423
0.20982 0.77944 0.09472
0.23526 0.78031 0.09521
0.26122 0.78120 0.09572
0.28760 0.78211 0.09622
0.31435 0.78303 0.09673
0.34142 0.78396 0.09724
0.36876 0.78491 0.09775
0.39636 0.78587 0.09825
0.42419 0.78684 0.09876
0.45223 0.78782 0.09926
0.48046 0.78881 0.09976
0.50888 0.78981 0.10026
0.53747 0.79082 0.10075
0.56621 0.79184 0.10124
0.59497 0.79286 0.10173
0.62358 0.79388 0.10220
0.65204 0.79490 0.10267
0.68033 0.79591 0.10313
0.70844 0.79692 0.10358
0.73635 0.79793 0.10402
0.76405 0.79893 0.10445
0.79151 0.79993 0.10487
0.81870 0.80092 0.10529
0.84559 0.80190 0.10569
0.87213 0.80288 0.10608
0.89825 0.80384 0.10646
0.92386 0.80478 0.10683
0.94879 0.80570 0.10718
0.97270 0.80658 0.10752
0.99417 0.80738 0.10781
0.14343 0.80585 0.09511
0.16474 0.80658 0.09552
0.18849 0.80739 0.09598
0.21326 0.80824 0.09645
0.23871 0.80912 0.09693
0.26469 0.81002 0.09742
0.29110 0.81093 0.09791
0.31788 0.81186 0.09840
0.34497 0.81281 0.09889
0.37234 0.81377 0.09938
0.39996 0.81474 0.09987
0.42781 0.81572 0.10035
0.45587 0.81671 0.10084
0.48413 0.81771 0.10132
0.51258 0.81872 0.10180
0.54119 0.81974 0.10227
0.56996 0.82077 0.10274
0.59875 0.82181 0.10321
0.62738 0.82284 0.10367
0.65586 0.82387 0.10411
0.68418 0.82489 0.10455
0.71231 0.82591 0.10499
0.74025 0.82693 0.10541
0.76797 0.82795 0.10582
0.79546 0.82895 0.10622
0.82267 0.82996 0.10662
0.84959 0.83095 0.10700
0.87615 0.83193 0.10738
0.90230 0.83290 0.10774
0.92793 0.83385 0.10809
0.95287 0.83478 0.10843
0.97681 0.83568 0.10875
0.99829 0.83648 0.10903
0.14683 0.83427 0.09681
0.16816 0.83501 0.09721
0.19193 0.83583 0.09765
0.21672 0.83669 0.09811
0.24220 0.83758 0.09857
0.26820 0.83849 0.09904
0.29464 0.83941 0.09951
0.32143 0.84035 0.09999
0.34855 0.84131 0.10046
